%
O1002
(T2 D=4. CR=0. TAPER=15DEG - CHAMFER MILL)
N10 G90 G94 G17 G49 G40 G80
N15 G21
N20 G28 G91 Z0.
N25 G90

(ROTARY PARALLEL1 2)
N30 T2 M06
N35 S5000 M03
N40 G54
N45 G00 A0.
N50 M08
N55 G00 X43.8 Y1.579
N60 G43 Z22.445 H02
N65 G00 A0.
N70 Y1.016 Z14.448
N75 G01 Y0.975 Z13.86 F333.3
N80 Z12.45
N85 Y0.962 Z12.29 F1000.
N90 Y0.922 Z12.127
N95 Y0.851 Z11.967
N100 Y0.751 Z11.819
N105 Y0.625 Z11.69
N110 Y0.479 Z11.586
N115 Y0.321 Z11.511
N120 Y0.159 Z11.467
N125 Y0. Z11.45
N130 G93 Z11.446 A-178.778 F28.
N135 Z11.45 A-357.199 F28.
N140 X43.795 Z11.455 A-377.774 F242.7
N145 X43.79 Z11.459 A-397.166 F257.4
N150 X43.785 Z11.464 A-413.073 F313.5
N155 X43.78 Z11.469 A-432.449 F257.3
N160 X43.775 Z11.474 A-450.326 F278.8
N165 X43.771 Z11.479 A-464.727 F345.9
N170 X43.766 Z11.484 A-483.587 F264.
N175 X43.761 Z11.489 A-499.954 F304.1
N180 X43.756 Z11.494 A-519.289 F257.3
N185 X43.751 Z11.499 A-537.137 F278.6
N190 X43.746 Z11.503 A-554.974 F278.8
N195 X43.741 Z11.508 A-573.792 F264.
N200 X43.736 Z11.513 A-590.123 F304.1
N205 X43.731 Z11.518 A-609.417 F257.3
N210 X43.727 Z11.523 A-624.255 F334.4
N215 X43.722 Z11.528 A-641.561 F286.6
N220 X43.717 Z11.533 A-660.339 F264.
N225 X43.712 Z11.538 A-676.637 F304.1
N230 X43.707 Z11.542 A-696.384 F251.
N235 X43.702 Z11.546 A-711.685 F323.7
N240 X43.698 Z11.551 A-725.787 F350.9
N245 X43.693 Z11.556 A-744.034 F271.2
N250 X43.688 Z11.561 A-763.257 F257.3
N255 X43.683 Z11.565 A-780.005 F295.3
N260 X43.678 Z11.57 A-798.72 F264.1
N265 X43.673 Z11.575 A-815.958 F286.6
N270 X43.669 Z11.58 A-830.727 F334.3
N275 X43.664 Z11.585 A-850.4 F251.
N280 X43.659 Z11.59 A-866.623 F304.1
N285 X43.655 Z11.595 A-882.352 F313.5
N290 X43.65 Z11.6 A-900.044 F278.6
N295 X43.645 Z11.605 A-917.729 F278.6
N300 X43.64 Z11.61 A-936.873 F257.3
N305 X43.635 Z11.614 A-953.063 F304.1
N310 X43.631 Z11.619 A-969.248 F304.1
N315 X43.626 Z11.623 A-987.39 F271.2
N320 X43.622 Z11.628 A-1001.607 F345.8
N325 X43.617 Z11.633 A-1020.226 F264.1
N330 X43.612 Z11.637 A-1036.872 F295.2
N335 X43.607 Z11.642 A-1053.024 F304.1
N340 X43.602 Z11.647 A-1074.556 F228.
N345 X43.598 Z11.652 A-1088.673 F347.6
N350 X43.593 Z11.655 A-1104.318 F313.7
N355 X43.589 Z11.66 A-1119.959 F313.5
N360 X43.584 Z11.665 A-1136.565 F295.2
N365 X43.579 Z11.67 A-1155.61 F257.3
N370 X43.574 Z11.674 A-1173.187 F278.7
N375 X43.57 Z11.679 A-1187.83 F334.3
N380 X43.566 Z11.683 A-1203.924 F304.2
N385 X43.561 Z11.688 A-1220.012 F304.
N390 X43.556 Z11.693 A-1239.505 F250.9
N395 X43.551 Z11.698 A-1257.535 F271.1
N400 X43.547 Z11.703 A-1271.66 F345.8
N405 X43.542 Z11.707 A-1287.238 F313.6
N410 X43.538 Z11.712 A-1303.296 F304.1
N415 X43.533 Z11.717 A-1322.749 F250.9
N420 X43.528 Z11.721 A-1338.307 F313.6
N425 X43.523 Z11.726 A-1355.809 F278.7
N430 X43.518 Z11.73 A-1374.268 F264.1
N435 X43.513 Z11.735 A-1393.691 F250.9
N440 X43.509 Z11.74 A-1406.312 F385.8
N445 X43.504 Z11.744 A-1425.717 F251.
N450 X43.5 Z11.749 A-1440.358 F332.4
N455 X43.495 Z11.754 A-1457.816 F278.6
N460 X43.491 Z11.758 A-1473.808 F304.2
N465 X43.486 Z11.763 A-1489.796 F304.
N470 X43.482 Z11.767 A-1506.257 F295.3
N475 X43.477 Z11.771 A-1521.748 F313.7
N480 X43.473 Z11.776 A-1535.787 F345.8
N485 X43.468 Z11.781 A-1554.169 F264.1
N490 X43.463 Z11.786 A-1573.508 F250.9
N495 X43.458 Z11.79 A-1589.939 F295.2
N500 X43.455 Z11.794 A-1602.502 F385.9
N505 X43.45 Z11.798 A-1620.378 F271.2
N510 X43.446 Z11.803 A-1634.865 F334.4
N515 X43.442 Z11.808 A-1650.312 F313.4
N520 X43.437 Z11.813 A-1666.713 F295.2
N525 X43.432 Z11.818 A-1686.003 F250.8
N530 X43.427 Z11.823 A-1704.321 F264.
N535 X43.422 Z11.828 A-1721.67 F278.7
N540 X43.417 Z11.833 A-1740.453 F257.3
N545 X43.412 Z11.837 A-1756.818 F295.2
N550 X43.407 Z11.841 A-1773.179 F295.2
N555 X43.403 Z11.846 A-1788.576 F313.5
N560 X43.398 Z11.851 A-1805.65 F282.6
N565 X43.393 Z11.856 A-1823.919 F264.
N570 X43.388 Z11.861 A-1843.615 F244.8
N575 X43.383 Z11.865 A-1859.943 F295.2
N580 X43.38 Z11.869 A-1872.427 F385.8
N585 X43.375 Z11.874 A-1890.189 F271.2
N590 X43.37 Z11.879 A-1907.945 F271.2
N595 X43.365 Z11.884 A-1927.126 F250.9
N600 X43.36 Z11.888 A-1943.423 F295.1
N605 X43.357 Z11.892 A-1956.361 F371.7
N610 X43.352 Z11.897 A-1974.568 F264.
N615 X43.347 Z11.902 A-1991.815 F278.6
N620 X43.343 Z11.905 A-2004.26 F386.
N625 X43.34 Z11.909 A-2016.703 F385.8
N630 X43.335 Z11.913 A-2033.44 F286.8
N635 X43.332 Z11.917 A-2046.35 F371.7
N640 X43.327 Z11.922 A-2064.519 F264.
N645 X43.323 Z11.926 A-2078.862 F334.3
N650 X43.318 Z11.931 A-2094.148 F313.6
N655 X43.313 Z11.936 A-2113.248 F250.8
N660 X43.308 Z11.94 A-2129.947 F286.9
N665 X43.304 Z11.944 A-2145.692 F304.1
N670 X43.299 Z11.949 A-2163.219 F273.1
N675 X43.295 Z11.953 A-2178.002 F323.6
N680 X43.292 Z11.958 A-2190.395 F385.7
N685 X43.287 Z11.963 A-2206.593 F295.1
N690 X43.282 Z11.968 A-2226.115 F244.8
N695 X43.277 Z11.972 A-2241.349 F313.5
N700 X43.272 Z11.977 A-2261.815 F233.3
N705 X43.267 Z11.982 A-2277.039 F313.5
N710 X43.262 Z11.987 A-2296.532 F244.7
N715 X43.257 Z11.991 A-2313.16 F286.9
N720 X43.254 Z11.995 A-2325.514 F385.8
N725 X43.249 Z11.999 A-2343.09 F271.2
N730 X43.244 A-2361.036 F265.7
N735 X43.239 Z12. A-2380.224 F248.5
N740 X43.234 A-2396.541 F292.2
N745 X43.229 A-2415.349 F253.5
N750 X43.224 A-2432.976 F270.5
N755 X43.219 Z11.999 A-2451.136 F262.6
N760 X43.214 Z12. A-2470.218 F249.9
N765 X43.209 A-2486.412 F294.5
N770 X43.204 A-2505.464 F250.3
N775 X43.199 Z11.999 A-2523.217 F268.6
N780 X43.194 Z12. A-2540.844 F270.5
N785 X43.189 A-2560.386 F244.
N790 X43.184 A-2576.579 F294.5
N795 X43.179 A-2595.631 F250.3
N800 X43.174 Z11.999 A-2613.26 F270.5
N805 X43.169 Z12. A-2630.887 F270.5
N810 X43.164 Z11.999 A-2650.414 F244.2
N815 X43.159 Z12. A-2666.608 F294.5
N820 X43.154 A-2685.675 F250.1
N825 X43.149 Z11.999 A-2703.304 F270.5
N830 X43.144 Z12. A-2720.931 F270.5
N835 X43.139 Z11.999 A-2740.487 F243.8
N840 X43.134 Z12. A-2756.679 F294.5
N845 X43.129 Z11.999 A-2775.732 F250.3
N850 X43.124 Z12. A-2792.899 F277.8
N855 X43.119 A-2811.001 F263.4
N860 X43.114 A-2830.054 F250.3
N865 X43.109 A-2846.722 F286.1
N870 X43.104 Z11.999 A-2865.775 F250.3
N875 X43.099 A-2883.217 F273.4
N880 X43.094 Z12. A-2900.844 F270.5
N885 X43.089 A-2920.386 F244.
N890 X43.084 A-2936.579 F294.5
N895 X43.079 A-2955.631 F250.3
N900 X43.074 Z11.999 A-2973.26 F270.5
N905 X43.069 Z12. A-2990.887 F270.5
N910 X43.064 Z11.999 A-3010.414 F244.2
N915 X43.059 Z12. A-3026.608 F294.5
N920 X43.054 A-3045.675 F250.1
N925 X43.049 Z11.999 A-3063.304 F270.5
N930 X43.044 Z12. A-3080.931 F270.5
N935 X43.039 Z11.999 A-3100.487 F243.8
N940 X43.034 Z12. A-3116.679 F294.5
N945 X43.029 Z11.999 A-3135.732 F250.3
N950 X43.024 Z12. A-3152.899 F277.8
N955 X43.019 A-3171.001 F263.4
N960 X43.014 A-3190.054 F250.3
N965 X43.009 A-3206.722 F286.1
N970 X43.004 Z11.999 A-3225.775 F250.3
N975 X42.999 A-3243.217 F273.4
N980 X42.994 Z12. A-3260.844 F270.5
N985 X42.989 A-3280.386 F244.
N990 X42.984 A-3296.579 F294.5
N995 X42.979 A-3315.631 F250.3
N1000 X42.974 Z11.999 A-3333.26 F270.5
N1005 X42.969 Z12. A-3350.887 F270.5
N1010 X42.964 Z11.999 A-3370.414 F244.2
N1015 X42.959 Z12. A-3386.608 F294.5
N1020 X42.954 A-3405.675 F250.1
N1025 X42.949 Z11.999 A-3423.304 F270.5
N1030 X42.944 Z12. A-3440.931 F270.5
N1035 X42.939 Z11.999 A-3460.487 F243.8
N1040 X42.934 Z12. A-3476.679 F294.5
N1045 X42.929 Z11.999 A-3495.732 F250.3
N1050 X42.924 Z12. A-3512.899 F277.8
N1055 X42.919 A-3531.001 F263.4
N1060 X42.914 A-3550.054 F250.3
N1065 X42.909 A-3566.722 F286.1
N1070 X42.904 Z11.999 A-3585.775 F250.3
N1075 X42.899 A-3603.217 F273.4
N1080 X42.894 Z12. A-3620.844 F270.5
N1085 X42.889 A-3640.386 F244.
N1090 X42.884 A-3656.579 F294.5
N1095 X42.879 A-3675.631 F250.3
N1100 X42.874 Z11.999 A-3693.26 F270.5
N1105 X42.869 Z12. A-3710.887 F270.5
N1110 X42.864 Z11.999 A-3730.414 F244.2
N1115 X42.859 Z12. A-3746.608 F294.5
N1120 X42.854 A-3765.675 F250.1
N1125 X42.849 Z11.999 A-3783.304 F270.5
N1130 X42.844 Z12. A-3800.931 F270.5
N1135 X42.839 Z11.999 A-3820.487 F243.8
N1140 X42.834 Z12. A-3836.679 F294.5
N1145 X42.829 Z11.999 A-3855.732 F250.3
N1150 X42.824 Z12. A-3872.899 F277.8
N1155 X42.819 A-3891.001 F263.4
N1160 X42.814 A-3910.054 F250.3
N1165 X42.809 A-3926.722 F286.1
N1170 X42.804 Z11.999 A-3945.775 F250.3
N1175 X42.799 A-3963.217 F273.4
N1180 X42.794 Z12. A-3980.844 F270.5
N1185 X42.789 A-4000.386 F244.
N1190 X42.784 A-4016.579 F294.5
N1195 X42.779 A-4035.631 F250.3
N1200 X42.774 Z11.999 A-4053.26 F270.5
N1205 X42.769 Z12. A-4070.887 F270.5
N1210 X42.764 Z11.999 A-4090.414 F244.2
N1215 X42.759 Z12. A-4106.608 F294.5
N1220 X42.754 A-4125.675 F250.1
N1225 X42.749 Z11.999 A-4143.304 F270.5
N1230 X42.744 Z12. A-4160.931 F270.5
N1235 X42.739 Z11.999 A-4180.487 F243.8
N1240 X42.734 Z12. A-4196.679 F294.5
N1245 X42.729 Z11.999 A-4215.732 F250.3
N1250 X42.724 Z12. A-4232.899 F277.8
N1255 X42.719 A-4251.001 F263.4
N1260 X42.714 A-4270.054 F250.3
N1265 X42.709 A-4286.722 F286.1
N1270 X42.704 Z11.999 A-4305.775 F250.3
N1275 X42.699 A-4323.217 F273.4
N1280 X42.694 Z12. A-4340.844 F270.5
N1285 X42.689 A-4360.386 F244.
N1290 X42.684 A-4376.579 F294.5
N1295 X42.679 A-4395.631 F250.3
N1300 X42.674 Z11.999 A-4413.26 F270.5
N1305 X42.669 Z12. A-4430.887 F270.5
N1310 X42.664 Z11.999 A-4450.414 F244.2
N1315 X42.659 Z12. A-4466.608 F294.5
N1320 X42.654 A-4485.675 F250.1
N1325 X42.649 Z11.999 A-4503.304 F270.5
N1330 X42.644 Z12. A-4520.931 F270.5
N1335 X42.639 Z11.999 A-4540.487 F243.8
N1340 X42.634 Z12. A-4556.679 F294.5
N1345 X42.629 Z11.999 A-4575.732 F250.3
N1350 X42.624 Z12. A-4592.899 F277.8
N1355 X42.619 A-4611.001 F263.4
N1360 X42.614 A-4630.054 F250.3
N1365 X42.609 A-4646.722 F286.1
N1370 X42.604 Z11.999 A-4665.775 F250.3
N1375 X42.599 A-4683.217 F273.4
N1380 X42.594 Z12. A-4700.844 F270.5
N1385 X42.589 A-4720.386 F244.
N1390 X42.584 A-4736.579 F294.5
N1395 X42.579 A-4755.631 F250.3
N1400 X42.574 Z11.999 A-4773.26 F270.5
N1405 X42.569 Z12. A-4790.887 F270.5
N1410 X42.564 Z11.999 A-4810.414 F244.2
N1415 X42.559 Z12. A-4826.608 F294.5
N1420 X42.554 A-4845.675 F250.1
N1425 X42.549 Z11.999 A-4863.304 F270.5
N1430 X42.544 Z12. A-4880.931 F270.5
N1435 X42.539 Z11.999 A-4900.487 F243.8
N1440 X42.534 Z12. A-4916.679 F294.5
N1445 X42.529 Z11.999 A-4935.732 F250.3
N1450 X42.524 Z12. A-4952.899 F277.8
N1455 X42.519 A-4971.001 F263.4
N1460 X42.514 A-4990.054 F250.3
N1465 X42.509 A-5006.722 F286.1
N1470 X42.504 Z11.999 A-5025.775 F250.3
N1475 X42.499 A-5043.217 F273.4
N1480 X42.494 Z12. A-5060.844 F270.5
N1485 X42.489 A-5080.386 F244.
N1490 X42.484 A-5096.579 F294.5
N1495 X42.479 A-5115.631 F250.3
N1500 X42.474 Z11.999 A-5133.26 F270.5
N1505 X42.469 Z12. A-5150.887 F270.5
N1510 X42.464 Z11.999 A-5170.414 F244.2
N1515 X42.459 Z12. A-5186.608 F294.5
N1520 X42.454 A-5205.675 F250.1
N1525 X42.449 Z11.999 A-5223.304 F270.5
N1530 X42.444 Z12. A-5240.931 F270.5
N1535 X42.439 Z11.999 A-5260.487 F243.8
N1540 X42.434 Z12. A-5276.679 F294.5
N1545 X42.429 Z11.999 A-5295.732 F250.3
N1550 X42.424 Z12. A-5312.899 F277.8
N1555 X42.419 A-5331.001 F263.4
N1560 X42.414 A-5350.054 F250.3
N1565 X42.409 A-5366.722 F286.1
N1570 X42.404 Z11.999 A-5385.775 F250.3
N1575 X42.399 A-5403.217 F273.4
N1580 X42.394 Z12. A-5420.844 F270.5
N1585 X42.389 A-5440.386 F244.
N1590 X42.384 A-5456.579 F294.5
N1595 X42.379 A-5475.631 F250.3
N1600 X42.374 Z11.999 A-5493.26 F270.5
N1605 X42.369 Z12. A-5510.887 F270.5
N1610 X42.364 Z11.999 A-5530.414 F244.2
N1615 X42.359 Z12. A-5546.608 F294.5
N1620 X42.354 A-5565.675 F250.1
N1625 X42.349 Z11.999 A-5583.304 F270.5
N1630 X42.344 Z12. A-5600.931 F270.5
N1635 X42.339 Z11.999 A-5620.487 F243.8
N1640 X42.334 Z12. A-5636.679 F294.5
N1645 X42.329 Z11.999 A-5655.732 F250.3
N1650 X42.324 Z12. A-5672.899 F277.8
N1655 X42.319 A-5691.001 F263.4
N1660 X42.314 A-5710.054 F250.3
N1665 X42.309 A-5726.722 F286.1
N1670 X42.304 Z11.999 A-5745.775 F250.3
N1675 X42.299 A-5763.217 F273.4
N1680 X42.294 Z12. A-5780.844 F270.5
N1685 X42.289 A-5800.386 F244.
N1690 X42.284 A-5816.579 F294.5
N1695 X42.279 A-5835.631 F250.3
N1700 X42.274 Z11.999 A-5853.26 F270.5
N1705 X42.269 Z12. A-5870.887 F270.5
N1710 X42.264 Z11.999 A-5890.414 F244.2
N1715 X42.259 Z12. A-5906.608 F294.5
N1720 X42.254 A-5925.675 F250.1
N1725 X42.249 Z11.999 A-5943.304 F270.5
N1730 X42.244 Z12. A-5960.931 F270.5
N1735 X42.239 Z11.999 A-5980.487 F243.8
N1740 X42.234 Z12. A-5996.679 F294.5
N1745 X42.229 Z11.999 A-6015.732 F250.3
N1750 X42.224 Z12. A-6032.899 F277.8
N1755 X42.219 A-6051.001 F263.4
N1760 X42.214 A-6070.054 F250.3
N1765 X42.209 A-6086.722 F286.1
N1770 X42.204 Z11.999 A-6105.775 F250.3
N1775 X42.199 A-6123.217 F273.4
N1780 X42.194 Z12. A-6140.844 F270.5
N1785 X42.189 A-6160.386 F244.
N1790 X42.184 A-6176.579 F294.5
N1795 X42.179 A-6195.631 F250.3
N1800 X42.174 Z11.999 A-6213.26 F270.5
N1805 X42.169 Z12. A-6230.887 F270.5
N1810 X42.164 Z11.999 A-6250.414 F244.2
N1815 X42.159 Z12. A-6266.608 F294.5
N1820 X42.154 A-6285.675 F250.1
N1825 X42.149 Z11.999 A-6303.304 F270.5
N1830 X42.144 Z12. A-6320.931 F270.5
N1835 X42.139 Z11.999 A-6340.476 F244.
N1840 X42.134 Z12. A-6356.668 F294.5
N1845 X42.129 Z11.999 A-6375.735 F250.1
N1850 X42.124 Z12. A-6392.902 F277.8
N1855 X42.119 A-6411.004 F263.4
N1860 X42.114 A-6430.057 F250.3
N1865 X42.109 A-6446.725 F286.1
N1870 X42.104 Z11.999 A-6465.777 F250.3
N1875 X42.099 A-6483.217 F273.4
N1880 X42.094 Z12. A-6500.844 F270.5
N1885 X42.089 A-6520.386 F244.
N1890 X42.084 A-6536.579 F294.5
N1895 X42.079 A-6555.631 F250.3
N1900 X42.074 Z11.999 A-6573.26 F270.5
N1905 X42.069 Z12. A-6590.887 F270.5
N1910 X42.064 Z11.999 A-6610.414 F244.2
N1915 X42.059 Z12. A-6626.608 F294.5
N1920 X42.054 A-6645.675 F250.1
N1925 X42.049 Z11.999 A-6663.304 F270.5
N1930 X42.044 Z12. A-6680.931 F270.5
N1935 X42.039 Z11.999 A-6700.482 F243.9
N1940 X42.034 Z12. A-6716.675 F294.5
N1945 X42.029 Z11.999 A-6735.728 F250.3
N1950 X42.024 Z12. A-6752.894 F277.8
N1955 X42.019 A-6770.997 F263.4
N1960 X42.014 A-6790.049 F250.3
N1965 X42.009 A-6806.717 F286.1
N1970 X42.004 Z11.999 A-6825.77 F250.3
N1975 X41.999 A-6843.217 F273.3
N1980 X41.994 Z12. A-6860.844 F270.5
N1985 X41.989 A-6880.386 F244.
N1990 X41.984 A-6896.579 F294.5
N1995 X41.979 A-6915.631 F250.3
N2000 X41.974 Z11.999 A-6933.26 F270.5
N2005 X41.969 Z12. A-6950.887 F270.5
N2010 X41.964 Z11.999 A-6970.414 F244.2
N2015 X41.959 Z12. A-6986.608 F294.5
N2020 X41.954 A-7005.675 F250.1
N2025 X41.949 Z11.999 A-7023.304 F270.5
N2030 X41.944 Z12. A-7040.931 F270.5
N2035 X41.939 Z11.999 A-7060.487 F243.8
N2040 X41.934 Z12. A-7076.679 F294.5
N2045 X41.929 Z11.999 A-7095.732 F250.3
N2050 X41.924 Z12. A-7112.899 F277.8
N2055 X41.919 A-7131.001 F263.4
N2060 X41.914 A-7150.054 F250.3
N2065 X41.909 A-7166.722 F286.1
N2070 X41.904 Z11.999 A-7185.775 F250.3
N2075 X41.899 A-7203.217 F273.4
N2080 X41.894 Z12. A-7220.844 F270.5
N2085 X41.889 A-7240.386 F244.
N2090 X41.884 A-7256.579 F294.5
N2095 X41.879 A-7275.631 F250.3
N2100 X41.874 Z11.999 A-7293.26 F270.5
N2105 X41.869 Z12. A-7310.887 F270.5
N2110 X41.864 Z11.999 A-7330.414 F244.2
N2115 X41.859 Z12. A-7346.608 F294.5
N2120 X41.854 A-7365.675 F250.1
N2125 X41.849 Z11.999 A-7383.304 F270.5
N2130 X41.844 Z12. A-7400.931 F270.5
N2135 X41.839 Z11.999 A-7420.487 F243.8
N2140 X41.834 Z12. A-7436.679 F294.5
N2145 X41.829 Z11.999 A-7455.732 F250.3
N2150 X41.824 Z12. A-7472.899 F277.8
N2155 X41.819 A-7491.001 F263.4
N2160 X41.814 A-7510.054 F250.3
N2165 X41.809 A-7526.722 F286.1
N2170 X41.804 Z11.999 A-7545.775 F250.3
N2175 X41.799 A-7563.217 F273.4
N2180 X41.794 Z12. A-7580.844 F270.5
N2185 X41.789 A-7600.386 F244.
N2190 X41.784 A-7616.579 F294.5
N2195 X41.779 A-7635.631 F250.3
N2200 X41.774 Z11.999 A-7653.26 F270.5
N2205 X41.769 Z12. A-7670.887 F270.5
N2210 X41.764 Z11.999 A-7690.414 F244.2
N2215 X41.759 Z12. A-7706.608 F294.5
N2220 X41.754 A-7725.675 F250.1
N2225 X41.749 Z11.999 A-7743.304 F270.5
N2230 X41.744 Z12. A-7760.931 F270.5
N2235 X41.739 Z11.999 A-7780.487 F243.8
N2240 X41.734 Z12. A-7796.679 F294.5
N2245 X41.729 Z11.999 A-7815.732 F250.3
N2250 X41.724 Z12. A-7832.899 F277.8
N2255 X41.719 A-7851.001 F263.4
N2260 X41.714 A-7870.054 F250.3
N2265 X41.709 A-7886.722 F286.1
N2270 X41.704 Z11.999 A-7905.775 F250.3
N2275 X41.699 A-7923.217 F273.4
N2280 X41.694 Z12. A-7940.844 F270.5
N2285 X41.689 A-7960.386 F244.
N2290 X41.684 A-7976.579 F294.5
N2295 X41.679 A-7995.631 F250.3
N2300 X41.674 Z11.999 A-8013.26 F270.5
N2305 X41.669 Z12. A-8030.887 F270.5
N2310 X41.664 Z11.999 A-8050.414 F244.2
N2315 X41.659 Z12. A-8066.608 F294.5
N2320 X41.654 A-8085.675 F250.1
N2325 X41.649 Z11.999 A-8103.304 F270.5
N2330 X41.644 Z12. A-8120.931 F270.5
N2335 X41.639 Z11.999 A-8140.487 F243.8
N2340 X41.634 Z12. A-8156.679 F294.5
N2345 X41.629 Z11.999 A-8175.732 F250.3
N2350 X41.624 Z12. A-8192.899 F277.8
N2355 X41.619 A-8211.001 F263.4
N2360 X41.614 A-8230.054 F250.3
N2365 X41.609 A-8246.722 F286.1
N2370 X41.604 Z11.999 A-8265.775 F250.3
N2375 X41.599 A-8283.217 F273.4
N2380 X41.594 Z12. A-8300.844 F270.5
N2385 X41.589 A-8320.386 F244.
N2390 X41.584 A-8336.579 F294.5
N2395 X41.579 A-8355.631 F250.3
N2400 X41.574 Z11.999 A-8373.26 F270.5
N2405 X41.569 Z12. A-8390.887 F270.5
N2410 X41.564 Z11.999 A-8410.414 F244.2
N2415 X41.559 Z12. A-8426.608 F294.5
N2420 X41.554 A-8445.675 F250.1
N2425 X41.549 Z11.999 A-8463.304 F270.5
N2430 X41.544 Z12. A-8480.931 F270.5
N2435 X41.539 Z11.999 A-8500.487 F243.8
N2440 X41.534 Z12. A-8516.679 F294.5
N2445 X41.529 Z11.999 A-8535.732 F250.3
N2450 X41.524 Z12. A-8552.899 F277.8
N2455 X41.519 A-8571.001 F263.4
N2460 X41.514 A-8590.054 F250.3
N2465 X41.509 A-8606.722 F286.1
N2470 X41.504 Z11.999 A-8625.775 F250.3
N2475 X41.499 A-8643.217 F273.4
N2480 X41.494 Z12. A-8660.844 F270.5
N2485 X41.489 A-8680.386 F244.
N2490 X41.484 A-8696.579 F294.5
N2495 X41.479 A-8715.631 F250.3
N2500 X41.474 Z11.999 A-8733.26 F270.5
N2505 X41.469 Z12. A-8750.887 F270.5
N2510 X41.464 Z11.999 A-8770.414 F244.2
N2515 X41.459 Z12. A-8786.608 F294.5
N2520 X41.454 A-8805.675 F250.1
N2525 X41.449 Z11.999 A-8823.304 F270.5
N2530 X41.444 Z12. A-8840.931 F270.5
N2535 X41.439 Z11.999 A-8860.487 F243.8
N2540 X41.434 Z12. A-8876.679 F294.5
N2545 X41.429 Z11.999 A-8895.732 F250.3
N2550 X41.424 Z12. A-8912.899 F277.8
N2555 X41.419 A-8931.001 F263.4
N2560 X41.414 A-8950.054 F250.3
N2565 X41.409 A-8966.722 F286.1
N2570 X41.404 Z11.999 A-8985.775 F250.3
N2575 X41.399 A-9003.217 F273.4
N2580 X41.394 Z12. A-9020.844 F270.5
N2585 X41.389 A-9040.386 F244.
N2590 X41.384 A-9056.579 F294.5
N2595 X41.379 A-9075.631 F250.3
N2600 X41.374 Z11.999 A-9093.26 F270.5
N2605 X41.369 Z12. A-9110.887 F270.5
N2610 X41.364 Z11.999 A-9130.414 F244.2
N2615 X41.359 Z12. A-9146.608 F294.5
N2620 X41.354 A-9165.675 F250.1
N2625 X41.349 Z11.999 A-9183.304 F270.5
N2630 X41.344 Z12. A-9200.931 F270.5
N2635 X41.339 Z11.999 A-9220.487 F243.8
N2640 X41.334 Z12. A-9236.679 F294.5
N2645 X41.329 Z11.999 A-9255.732 F250.3
N2650 X41.324 Z12. A-9272.899 F277.8
N2655 X41.319 A-9291.001 F263.4
N2660 X41.314 A-9310.054 F250.3
N2665 X41.309 A-9326.722 F286.1
N2670 X41.304 Z11.999 A-9345.775 F250.3
N2675 X41.299 A-9363.217 F273.4
N2680 X41.294 Z12. A-9380.844 F270.5
N2685 X41.289 A-9400.386 F244.
N2690 X41.284 A-9416.579 F294.5
N2695 X41.279 A-9435.631 F250.3
N2700 X41.274 Z11.999 A-9453.26 F270.5
N2705 X41.269 Z12. A-9470.887 F270.5
N2710 X41.264 Z11.999 A-9490.414 F244.2
N2715 X41.259 Z12. A-9506.608 F294.5
N2720 X41.254 A-9525.675 F250.1
N2725 X41.249 Z11.999 A-9543.304 F270.5
N2730 X41.244 Z12. A-9560.931 F270.5
N2735 X41.239 Z11.999 A-9580.487 F243.8
N2740 X41.234 Z12. A-9596.679 F294.5
N2745 X41.229 Z11.999 A-9615.732 F250.3
N2750 X41.224 Z12. A-9632.899 F277.8
N2755 X41.219 A-9651.001 F263.4
N2760 X41.214 A-9670.054 F250.3
N2765 X41.209 A-9686.722 F286.1
N2770 X41.204 Z11.999 A-9705.775 F250.3
N2775 X41.199 A-9723.217 F273.4
N2780 X41.194 Z12. A-9740.844 F270.5
N2785 X41.189 A-9760.386 F244.
N2790 X41.184 A-9776.579 F294.5
N2795 X41.179 A-9795.631 F250.3
N2800 X41.174 Z11.999 A-9813.26 F270.5
N2805 X41.169 Z12. A-9830.887 F270.5
N2810 X41.164 Z11.999 A-9850.414 F244.2
N2815 X41.159 Z12. A-9866.608 F294.5
N2820 X41.154 A-9885.675 F250.1
N2825 X41.149 Z11.999 A-9903.304 F270.5
N2830 X41.144 Z12. A-9920.931 F270.5
N2835 X41.139 Z11.999 A-9940.487 F243.8
N2840 X41.134 Z12. A-9956.679 F294.5
N2845 X41.129 Z11.999 A-9975.732 F250.3
N2850 X41.124 Z12. A-9992.899 F277.8
N2855 X41.119 A-10011.001 F263.4
N2860 X41.114 A-10030.054 F250.3
N2865 X41.109 A-10046.722 F286.1
N2870 X41.104 Z11.999 A-10065.775 F250.3
N2875 X41.099 A-10083.217 F273.4
N2880 X41.094 Z12. A-10100.844 F270.5
N2885 X41.089 A-10120.386 F244.
N2890 X41.084 A-10136.579 F294.5
N2895 X41.079 A-10155.631 F250.3
N2900 X41.074 Z11.999 A-10173.26 F270.5
N2905 X41.069 Z12. A-10190.887 F270.5
N2910 X41.064 Z11.999 A-10210.414 F244.2
N2915 X41.059 Z12. A-10226.608 F294.5
N2920 X41.054 A-10245.675 F250.1
N2925 X41.049 Z11.999 A-10263.304 F270.5
N2930 X41.044 Z12. A-10280.931 F270.5
N2935 X41.039 Z11.999 A-10300.487 F243.8
N2940 X41.034 Z12. A-10316.679 F294.5
N2945 X41.029 Z11.999 A-10335.732 F250.3
N2950 X41.024 Z12. A-10352.899 F277.8
N2955 X41.019 A-10371.001 F263.4
N2960 X41.014 A-10390.054 F250.3
N2965 X41.009 A-10406.722 F286.1
N2970 X41.004 Z11.999 A-10425.775 F250.3
N2975 X40.999 A-10443.217 F273.4
N2980 X40.994 Z12. A-10460.844 F270.5
N2985 X40.989 A-10480.386 F244.
N2990 X40.984 A-10496.579 F294.5
N2995 X40.979 A-10515.631 F250.3
N3000 X40.974 Z11.999 A-10533.26 F270.5
N3005 X40.969 Z12. A-10550.887 F270.5
N3010 X40.964 Z11.999 A-10570.414 F244.2
N3015 X40.959 Z12. A-10586.608 F294.5
N3020 X40.954 A-10605.675 F250.1
N3025 X40.949 Z11.999 A-10623.304 F270.5
N3030 X40.944 Z12. A-10640.931 F270.5
N3035 X40.939 Z11.999 A-10660.487 F243.8
N3040 X40.934 Z12. A-10676.679 F294.5
N3045 X40.929 Z11.999 A-10695.732 F250.3
N3050 X40.924 Z12. A-10712.899 F277.8
N3055 X40.919 A-10731.001 F263.4
N3060 X40.914 A-10750.054 F250.3
N3065 X40.909 A-10766.722 F286.1
N3070 X40.904 Z11.999 A-10785.775 F250.3
N3075 X40.899 A-10803.217 F273.4
N3080 X40.894 Z12. A-10820.844 F270.5
N3085 X40.889 A-10840.386 F244.
N3090 X40.884 A-10856.579 F294.5
N3095 X40.879 A-10875.631 F250.3
N3100 X40.874 Z11.999 A-10893.26 F270.5
N3105 X40.869 Z12. A-10910.887 F270.5
N3110 X40.864 Z11.999 A-10930.414 F244.2
N3115 X40.859 Z12. A-10946.608 F294.5
N3120 X40.854 A-10965.675 F250.1
N3125 X40.849 Z11.999 A-10983.304 F270.5
N3130 X40.844 Z12. A-11000.931 F270.5
N3135 X40.839 Z11.999 A-11020.487 F243.8
N3140 X40.834 Z12. A-11036.679 F294.5
N3145 X40.829 Z11.999 A-11055.732 F250.3
N3150 X40.824 Z12. A-11072.899 F277.8
N3155 X40.819 A-11091.001 F263.4
N3160 X40.814 A-11110.054 F250.3
N3165 X40.809 A-11126.722 F286.1
N3170 X40.804 Z11.999 A-11145.775 F250.3
N3175 X40.799 A-11163.217 F273.4
N3180 X40.794 Z12. A-11180.845 F270.5
N3185 X40.789 Z11.999 A-11200.4 F243.8
N3190 X40.784 Z12. A-11216.594 F294.5
N3195 X40.779 A-11235.646 F250.3
N3200 X40.774 A-11252.974 F275.2
N3205 X40.769 Z11.999 A-11271.138 F262.5
N3210 X40.764 Z12. A-11290.307 F248.8
N3215 X40.759 A-11306.624 F292.2
N3220 X40.754 Z11.999 A-11325.615 F251.1
N3225 X40.749 A-11342.842 F276.8
N3230 X40.746 Z11.995 A-11354.719 F401.3
N3235 X40.741 Z11.99 A-11373.724 F250.8
N3240 X40.736 Z11.986 A-11389.888 F295.1
N3245 X40.732 Z11.982 A-11406.054 F295.1
N3250 X40.727 Z11.977 A-11421.277 F313.5
N3255 X40.723 Z11.972 A-11436.035 F323.5
N3260 X40.718 Z11.967 A-11454.129 F264.
N3265 X40.714 Z11.963 A-11470.319 F295.1
N3270 X40.709 Z11.959 A-11486.517 F295.2
N3275 X40.705 Z11.955 A-11502.246 F304.1
N3280 X40.701 Z11.95 A-11514.641 F385.8
N3285 X40.696 Z11.946 A-11534.672 F239.
N3290 X40.692 Z11.941 A-11550.417 F304.
N3295 X40.687 Z11.937 A-11566.646 F295.1
N3300 X40.683 Z11.932 A-11582.878 F295.1
N3305 X40.678 Z11.927 A-11598.64 F304.
N3310 X40.673 Z11.922 A-11618.718 F238.8
N3315 X40.668 Z11.918 A-11634.018 F313.5
N3320 X40.664 Z11.913 A-11650.276 F295.1
N3325 X40.659 Z11.909 A-11666.542 F295.2
N3330 X40.655 Z11.905 A-11682.337 F304.1
N3335 X40.651 Z11.901 A-11697.18 F323.7
N3340 X40.647 Z11.897 A-11711.552 F334.3
N3345 X40.643 Z11.893 A-11724.01 F385.9
N3350 X40.639 Z11.888 A-11740.3 F295.1
N3355 X40.634 Z11.883 A-11756.599 F295.2
N3360 X40.629 Z11.879 A-11775.306 F257.3
N3365 X40.625 Z11.874 A-11790.184 F323.5
N3370 X40.62 Z11.869 A-11807.95 F271.1
N3375 X40.616 Z11.864 A-11823.796 F304.1
N3380 X40.611 Z11.86 A-11840.126 F295.2
N3385 X40.606 Z11.855 A-11859.348 F250.9
N3390 X40.601 Z11.851 A-11877.14 F271.2
N3395 X40.6 Z11.845 A-11878.749 F2953.4
N3400 X40.595 A-11897.678 F255.2
N3405 X40.591 Z11.841 A-11913.557 F304.
N3410 X40.586 Z11.836 A-11929.922 F295.1
N3415 X40.583 Z11.832 A-11942.921 F371.6
N3420 X40.578 Z11.828 A-11958.339 F313.5
N3425 X40.573 Z11.823 A-11975.692 F278.6
N3430 X40.568 Z11.818 A-11994.012 F264.
N3435 X40.565 Z11.814 A-12007.031 F371.6
N3440 X40.56 Z11.809 A-12023.431 F295.1
N3445 X40.555 Z11.805 A-12042.255 F257.3
N3450 X40.551 Z11.801 A-12057.224 F323.6
N3455 X40.546 Z11.796 A-12074.618 F278.6
N3460 X40.542 Z11.792 A-12087.181 F385.9
N3465 X40.538 Z11.787 A-12103.611 F295.1
N3470 X40.533 Z11.782 A-12122.952 F250.9
N3475 X40.528 Z11.778 A-12138.433 F313.5
N3480 X40.523 Z11.773 A-12155.855 F278.7
N3485 X40.519 Z11.769 A-12170.865 F323.6
N3490 X40.515 Z11.765 A-12186.846 F304.1
N3495 X40.511 Z11.761 A-12199.925 F371.7
N3500 X40.507 Z11.756 A-12215.916 F304.
N3505 X40.502 Z11.751 A-12234.34 F264.
N3510 X40.501 Z11.75 A-12237.25 F1672.2
N3515 X40.497 Z11.746 A-12251.516 F341.1
N3520 X40.492 Z11.741 A-12270.441 F257.2
N3525 X40.488 Z11.737 A-12283.545 F371.6
N3530 X40.483 Z11.732 A-12302.968 F250.9
N3535 X40.478 Z11.728 A-12318.515 F313.5
N3540 X40.474 Z11.723 A-12333.096 F334.4
N3545 X40.469 Z11.718 A-12351.09 F271.1
N3550 X40.464 Z11.714 A-12370.061 F257.3
N3555 X40.46 Z11.71 A-12383.195 F371.7
N3560 X40.456 Z11.705 A-12399.256 F304.
N3565 X40.451 Z11.7 A-12417.274 F271.1
N3570 X40.446 Z11.695 A-12434.818 F278.6
N3575 X40.442 Z11.691 A-12450.413 F313.6
N3580 X40.438 Z11.687 A-12463.572 F371.6
N3585 X40.433 Z11.683 A-12479.666 F304.1
N3590 X40.429 Z11.679 A-12495.276 F313.5
N3595 X40.426 Z11.674 A-12507.48 F401.1
N3600 X40.421 Z11.671 A-12524.57 F286.7
N3605 X40.417 Z11.667 A-12537.267 F385.9
N3610 X40.413 Z11.663 A-12553.386 F304.1
N3615 X40.409 Z11.658 A-12566.577 F371.7
N3620 X40.404 Z11.653 A-12585.642 F257.3
N3625 X40.401 Z11.65 A-12597.384 F418.
N3630 X40.396 Z11.646 A-12614.547 F286.
N3635 X40.392 Z11.642 A-12627.272 F385.9
N3640 X40.388 Z11.638 A-12643.426 F304.1
N3645 X40.383 Z11.633 A-12659.586 F304.1
N3650 X40.379 Z11.629 A-12675.263 F313.6
N3655 X40.374 Z11.624 A-12692.914 F278.6
N3660 X40.37 Z11.62 A-12707.627 F334.4
N3665 X40.367 Z11.616 A-12720.379 F385.9
N3670 X40.362 Z11.612 A-12736.569 F304.
N3675 X40.358 Z11.607 A-12752.765 F304.1
N3680 X40.353 Z11.603 A-12768.478 F313.5
N3685 X40.351 Z11.6 A-12777.319 F557.4
N3690 X40.346 Z11.595 A-12794.519 F286.6
N3695 X40.341 Z11.59 A-12813.689 F257.3
N3700 X40.336 Z11.586 A-12829.915 F304.1
N3705 X40.332 Z11.581 A-12846.146 F304.
N3710 X40.327 Z11.576 A-12864.356 F271.2
N3715 X40.322 Z11.572 A-12881.591 F286.6
N3720 X40.318 Z11.568 A-12893.904 F401.3
N3725 X40.314 Z11.563 A-12910.161 F304.1
N3730 X40.309 Z11.559 A-12926.424 F304.1
N3735 X40.305 Z11.554 A-12942.202 F313.5
N3740 X40.301 Z11.549 A-12957.498 F323.5
N3745 X40.296 Z11.546 A-12974.672 F288.4
N3750 X40.292 Z11.541 A-12990.468 F313.5
N3755 X40.287 Z11.536 A-13006.762 F304.1
N3760 X40.282 Z11.532 A-13026.028 F257.3
N3765 X40.277 Z11.527 A-13044.314 F271.2
N3770 X40.272 Z11.522 A-13061.623 F286.6
N3775 X40.268 Z11.518 A-13073.989 F401.3
N3780 X40.263 Z11.513 A-13093.286 F257.3
N3785 X40.258 Z11.508 A-13109.62 F304.1
N3790 X40.253 Z11.503 A-13128.44 F264.
N3795 X40.251 Z11.5 A-13137.356 F557.4
N3800 X40.246 Z11.496 A-13154.706 F286.6
N3805 X40.242 Z11.492 A-13167.1 F401.4
N3810 X40.238 Z11.487 A-13183.463 F304.1
N3815 X40.233 Z11.482 A-13202.813 F257.3
N3820 X40.228 Z11.477 A-13218.695 F313.5
N3825 X40.223 Z11.472 A-13238.567 F250.8
N3830 X40.218 Z11.468 A-13253.969 F323.7
N3835 X40.215 Z11.464 A-13266.888 F385.9
N3840 X40.21 Z11.46 A-13283.291 F304.1
N3845 X40.206 Z11.456 A-13299.205 F313.6
N3850 X40.202 Z11.451 A-13311.643 F401.2
N3855 X40.201 A-13317.121 F912.
N3860 X40.2 Z11.445 A-13318.74 F3038.7
N3865 X40.195 A-13337.785 F262.5
N3870 X40.191 Z11.44 A-13353.719 F313.6
N3875 X40.186 Z11.435 A-13370.155 F304.1
N3880 X40.181 Z11.43 A-13389.094 F264.1
N3885 X40.177 Z11.425 A-13404.553 F323.5
N3890 X40.172 Z11.421 A-13421.52 F295.
N3895 X40.167 Z11.416 A-13440.483 F264.
N3900 X40.163 Z11.412 A-13453.461 F386.
N3905 X40.158 Z11.407 A-13472.936 F257.3
N3910 X40.153 Z11.403 A-13488.425 F323.7
N3915 X40.15 Z11.4 A-13499.921 F436.1
N3920 Z11.394 A-13501.423 F3286.9
N3925 X40.148 Z11.39 A-13508.937 F667.3
N3930 X40.147 Z11.386 A-13511.944 F1660.4
N3935 X40.146 Z11.383 A-13514.952 F1663.9
N3940 X40.145 Z11.38 A-13517.96 F1664.9
N3945 X40.143 Z11.375 A-13523.978 F832.9
N3950 X40.142 Z11.37 A-13527.485 F1425.5
N3955 X40.141 Z11.365 A-13533.503 F833.8
N3960 X40.14 Z11.361 A-13537.009 F1428.9
N3965 X40.139 Z11.358 A-13540.018 F1668.6
N3970 X40.138 Z11.354 A-13543.023 F1666.2
N3975 X40.137 Z11.351 A-13547.031 F1254.2
N3980 X40.136 Z11.347 A-13550.043 F1666.5
N3985 X40.135 Z11.344 A-13553.056 F1667.1
N3990 X40.134 Z11.341 A-13556.561 F1432.9
N3995 X40.133 Z11.338 A-13559.57 F1670.4
N4000 X40.132 Z11.333 A-13563.078 F1431.7
N4005 X40.131 Z11.328 A-13569.098 F835.7
N4010 X40.13 Z11.323 A-13572.605 F1432.1
N4015 X40.129 Z11.32 A-13575.616 F1672.4
N4020 X40.127 Z11.315 A-13581.64 F836.2
N4025 X40.126 Z11.31 A-13587.16 F912.6
N4030 X40.125 Z11.306 A-13590.168 F1673.2
N4035 X40.123 Z11.301 A-13595.69 F913.5
N4040 Z11.297 A-13598.695 F1677.2
N4045 X40.122 Z11.294 A-13601.703 F1676.3
N4050 X40.121 Z11.291 A-13604.711 F1677.9
N4055 X40.12 Z11.287 A-13608.223 F1435.8
N4060 X40.119 Z11.283 A-13611.229 F1676.9
N4065 X40.117 Z11.278 A-13617.251 F839.7
N4070 Z11.275 A-13620.261 F1678.6
N4075 X40.116 Z11.271 A-13623.77 F1439.2
N4080 X40.115 Z11.268 A-13626.782 F1680.9
N4085 X40.114 Z11.264 A-13630.291 F1439.7
N4090 X40.113 Z11.261 A-13633.302 F1681.7
N4095 X40.112 Z11.257 A-13636.811 F1441.2
N4100 X40.111 Z11.254 A-13640.323 F1441.3
N4105 X40.11 Z11.251 A-13643.335 F1681.3
N4110 X40.109 Z11.248 A-13646.351 F1680.4
N4115 Z11.244 A-13649.358 F1682.2
N4120 X40.108 Z11.241 A-13652.867 F1447.2
N4125 X40.107 Z11.236 A-13656.375 F1441.7
N4130 X40.105 Z11.231 A-13662.398 F842.8
N4135 X40.104 Z11.228 A-13665.408 F1686.4
N4140 X40.103 Z11.225 A-13668.418 F1686.6
N4145 X40.102 Z11.222 A-13671.427 F1686.6
N4150 Z11.219 A-13674.436 F1686.4
N4155 X40.101 Z11.215 A-13677.446 F1687.2
N4160 X40.099 Z11.21 A-13682.866 F937.9
N4165 X40.098 Z11.207 A-13685.875 F1688.2
N4170 Z11.204 A-13688.886 F1689.3
N4175 X40.097 Z11.2 A-13691.897 F1686.9
N4180 X40.096 Z11.197 A-13694.908 F1689.3
N4185 X40.095 Z11.194 A-13697.92 F1690.4
N4190 X40.094 Z11.191 A-13700.932 F1691.7
N4195 X40.093 Z11.188 A-13703.942 F1692.7
N4200 X40.092 Z11.183 A-13707.451 F1448.7
N4205 X40.091 Z11.178 A-13713.474 F846.6
N4210 X40.09 Z11.174 A-13716.984 F1451.8
N4215 X40.089 Z11.171 A-13719.995 F1694.2
N4220 X40.088 Z11.168 A-13723.505 F1453.
N4225 X40.087 Z11.165 A-13726.516 F1694.8
N4230 X40.086 Z11.161 A-13730.029 F1452.8
N4235 X40.085 Z11.158 A-13733.046 F1692.4
N4240 X40.084 Z11.154 A-13736.551 F1457.
N4245 X40.083 Z11.151 A-13739.562 F1697.2
N4250 X40.082 Z11.147 A-13743.071 F1454.7
N4255 Z11.145 A-13746.083 F1699.6
N4260 X40.081 Z11.141 A-13749.093 F1698.
N4265 X40.08 Z11.137 A-13752.602 F1455.4
N4270 X40.079 Z11.134 A-13755.615 F1699.1
N4275 X40.078 Z11.131 A-13758.628 F1699.1
N4280 X40.077 Z11.128 A-13761.64 F1701.5
N4285 X40.076 Z11.123 A-13767.162 F927.5
N4290 X40.075 Z11.119 A-13770.171 F1700.4
N4295 X40.073 Z11.114 A-13775.693 F928.6
N4300 Z11.111 A-13778.7 F1704.5
N4305 X40.072 Z11.107 A-13781.708 F1704.2
N4310 X40.071 Z11.104 A-13784.716 F1705.6
N4315 X40.07 Z11.1 A-13788.233 F1458.4
N4320 X40.069 Z11.098 A-13790.737 F2051.9
N4325 X40.068 Z11.094 A-13794.246 F1461.
N4330 X40.067 Z11.091 A-13797.258 F1707.2
N4335 Z11.088 A-13800.269 F1706.7
N4340 X40.066 Z11.084 A-13803.779 F1463.
N4345 X40.065 Z11.082 A-13806.791 F1709.
N4350 X40.064 Z11.077 A-13810.3 F1463.6
N4355 X40.063 Z11.075 A-13813.312 F1709.8
N4360 X40.062 Z11.071 A-13816.82 F1465.1
N4365 X40.061 Z11.067 A-13820.333 F1465.2
N4370 X40.06 Z11.064 A-13823.351 F1705.6
N4375 X40.059 Z11.061 A-13826.364 F1711.2
N4380 Z11.057 A-13829.369 F1711.2
N4385 X40.058 Z11.055 A-13832.878 F1471.2
N4390 X40.057 Z11.05 A-13836.386 F1465.9
N4395 X40.056 Z11.047 A-13839.398 F1713.8
N4400 X40.054 Z11.042 A-13845.42 F857.
N4405 X40.053 Z11.039 A-13848.43 F1714.8
N4410 X40.052 Z11.035 A-13851.439 F1714.8
N4415 Z11.032 A-13854.449 F1714.6
N4420 X40.05 Z11.027 A-13859.971 F935.8
N4425 Z11.021 A-13861.475 F3391.7
N4430 X40.048 Z11.017 A-13868.996 F689.1
N4435 X40.047 Z11.013 A-13872.006 F1713.4
N4440 X40.046 Z11.009 A-13875.016 F1718.5
N4445 X40.044 Z11.004 A-13881.039 F859.7
N4450 X40.043 Z11.001 A-13884.051 F1721.
N4455 X40.042 Z10.998 A-13887.062 F1720.3
N4460 Z10.994 A-13890.571 F1474.7
N4465 X40.041 Z10.992 A-13893.584 F1723.6
N4470 X40.04 Z10.987 A-13897.092 F1474.8
N4475 X40.039 Z10.985 A-13900.105 F1724.5
N4480 X40.038 Z10.981 A-13903.115 F1719.8
N4485 X40.037 Z10.978 A-13907.126 F1295.4
N4490 X40.036 Z10.974 A-13910.14 F1719.
N4495 X40.035 Z10.972 A-13913.162 F1721.2
N4500 X40.034 Z10.967 A-13916.663 F1481.
N4505 X40.033 Z10.965 A-13919.676 F1727.2
N4510 X40.032 Z10.96 A-13923.184 F1478.1
N4515 X40.031 Z10.955 A-13929.208 F864.1
N4520 X40.03 Z10.952 A-13932.218 F1727.2
N4525 X40.029 Z10.947 A-13935.727 F1479.9
N4530 X40.028 Z10.944 A-13938.74 F1727.9
N4535 X40.027 Z10.939 A-13944.266 F943.4
N4540 X40.026 Z10.936 A-13947.275 F1730.1
N4545 X40.025 Z10.932 A-13950.284 F1729.
N4550 X40.023 Z10.927 A-13955.806 F944.5
N4555 Z10.923 A-13958.816 F1731.
N4560 X40.021 Z10.918 A-13963.332 F1153.5
N4565 X40.02 Z10.914 A-13968.361 F1039.2
N4570 X40.019 Z10.912 A-13970.86 F2090.5
N4575 X40.018 Z10.908 A-13973.87 F1733.9
N4580 X40.017 Z10.904 A-13977.379 F1486.8
N4585 Z10.902 A-13980.392 F1737.2
N4590 X40.016 Z10.897 A-13983.9 F1486.6
N4595 X40.015 Z10.895 A-13986.913 F1738.6
N4600 X40.014 Z10.89 A-13990.422 F1487.7
N4605 X40.013 Z10.888 A-13993.435 F1740.
N4610 X40.012 Z10.883 A-13996.942 F1489.8
N4615 X40.01 Z10.878 A-14002.97 F869.2
N4620 Z10.874 A-14004.012 F4959.5
N4625 Z2.535 A-14004.026 F119.9
N4630 X40.009 Z2.385 A-14006.611 F3787.
N4635 X40.008 Z2.196 A-14009.836 F3089.7
N4640 X40.007 Z1.972 A-14013.543 F2734.
N4645 X40.006 Z1.732 A-14017.399 F2682.7
N4650 X40.005 Z1.472 A-14021.568 F2592.1
N4655 X40.004 Z1.175 A-14026.398 F2377.2
N4660 X40.003 Z0.911 A-14030.922 F2802.4
N4665 X40.001 Z0.661 A-14035.736 F3061.7
N4670 Z0.615 A-14036.586 F9999.
N4675 Z0.57 A-14037.573 F9999.
N4680 X40. Z0.479 A-14040.112 F8608.5
N4685 A-14040.123 F9999.
N4690 X39.999 Z0.662 A-14044.287 F4316.7
N4695 X39.998 Z0.895 A-14048.809 F3295.3
N4700 X39.996 Z1.16 A-14053.399 F2797.
N4705 X39.995 Z1.414 A-14057.558 F2802.5
N4710 X39.994 Z1.55 A-14059.818 F5077.5
N4715 Z1.714 A-14062.276 F4206.3
N4720 X39.993 Z1.982 A-14066.644 F2387.5
N4725 X39.991 Z2.222 A-14070.605 F2540.6
N4730 X39.99 Z2.457 A-14074.629 F2453.3
N4735 X39.989 Z2.667 A-14078.37 F2597.6
N4740 X39.988 Z2.854 A-14081.811 F2797.9
N4745 X39.987 Z3.037 A-14085.412 F2674.3
N4750 X39.986 Z3.203 A-14088.881 F2773.8
N4755 X39.985 Z3.357 A-14092.296 F2823.4
N4760 X39.984 Z3.512 A-14096.053 F2594.
N4765 X39.983 Z3.657 A-14099.905 F2564.1
N4770 X39.982 Z3.781 A-14103.599 F2717.2
N4775 X39.981 Z3.896 A-14107.565 F2598.9
N4780 X39.98 Z3.986 A-14111.151 F2945.1
N4785 X39.979 Z4.067 A-14115.252 F2684.4
N4790 X39.978 Z4.126 A-14119.078 F2995.
N4795 X39.977 Z4.164 A-14122.524 F3467.2
N4800 X39.976 Z4.186 A-14126.051 F3566.2
N4805 X39.975 Z4.194 A-14130.08 F3304.8
N4810 X39.974 Z4.186 A-14134.157 F3259.3
N4815 X39.973 Z4.167 A-14136.863 F4617.3
N4820 X39.972 Z4.14 A-14139.502 F4573.1
N4825 Z4.111 A-14141.925 F4899.6
N4830 X39.971 Z4.054 A-14145.474 F3203.9
N4835 X39.97 Z3.975 A-14149.27 F2877.1
N4840 X39.969 Z3.884 A-14152.897 F2922.
N4845 X39.968 Z3.77 A-14156.748 F2667.
N4850 X39.966 Z3.63 A-14160.833 F2445.3
N4855 X39.965 Z3.49 A-14164.518 F2675.9
N4860 X39.964 Z3.339 A-14168.12 F2704.1
N4865 X39.963 Z3.168 A-14171.864 F2570.
N4870 X39.962 Z3. A-14175.326 F2776.2
N4875 Z2.835 A-14178.543 F3004.6
N4880 X39.96 Z2.629 A-14182.323 F2544.6
N4885 X39.959 Z2.42 A-14186.012 F2644.6
N4890 X39.958 Z2.207 A-14189.671 F2717.1
N4895 X39.957 Z1.946 A-14193.924 F2355.6
N4900 X39.956 Z1.703 A-14197.879 F2651.4
N4905 X39.955 Z1.427 A-14202.259 F2459.5
N4910 X39.954 Z1.186 A-14206.239 F2943.7
N4915 X39.952 Z0.879 A-14211.454 F2407.6
N4920 X39.951 Z0.646 A-14216.094 F3281.2
N4925 X39.95 Z0.479 A-14219.887 F4773.5
N4930 A-14219.902 F9999.
N4935 X39.949 Z0.575 A-14222.599 F8131.3
N4940 Z0.624 A-14223.635 F9999.
N4945 Z0.672 A-14224.522 F9999.
N4950 X39.947 Z0.919 A-14229.199 F3108.
N4955 X39.946 Z1.199 A-14233.99 F2628.4
N4960 X39.945 Z1.464 A-14238.274 F2673.6
N4965 X39.944 Z1.73 A-14242.584 F2518.4
N4970 X39.943 Z1.942 A-14245.965 F3067.7
N4975 X39.942 Z2.188 A-14250.019 F2496.
N4980 X39.941 Z2.388 A-14253.429 F2917.8
N4985 X39.94 Z2.562 A-14256.473 F3225.1
N4990 X39.939 Z2.718 A-14259.279 F3456.7
N4995 X39.938 Z2.879 A-14262.297 F3203.
N5000 X39.937 Z3.042 A-14265.522 F2994.2
N5005 X39.936 Z3.194 A-14268.644 F3069.
N5010 Z3.348 A-14272.056 F2826.9
N5015 X39.934 Z3.504 A-14275.814 F2589.6
N5020 Z3.637 A-14279.306 F2824.1
N5025 X39.933 Z3.761 A-14282.953 F2751.2
N5030 X39.932 Z3.866 A-14286.458 F2925.3
N5035 X39.931 Z3.955 A-14289.863 F3088.1
N5040 X39.93 Z4.02 A-14292.746 F3742.4
N5045 X39.929 Z4.075 A-14295.685 F3786.1
N5050 X39.928 Z4.128 A-14299.217 F3251.6
N5055 X39.927 Z4.165 A-14302.67 F3475.8
N5060 X39.926 Z4.187 A-14306.286 F3488.5
N5065 X39.925 Z4.194 A-14310.339 F3293.5
N5070 X39.924 Z4.185 A-14314.242 F3392.7
N5075 X39.923 Z4.163 A-14317.622 F3720.6
N5080 X39.922 Z4.123 A-14321.235 F3306.3
N5085 X39.921 Z4.068 A-14324.778 F3223.1
N5090 X39.92 Z4.002 A-14328.077 F3335.2
N5095 X39.919 Z3.923 A-14331.406 F3209.4
N5100 X39.918 Z3.853 A-14333.981 F4058.3
N5105 X39.917 Z3.757 A-14337.147 F3232.1
N5110 Z3.645 A-14340.472 F3031.5
N5115 X39.915 Z3.497 A-14344.365 F2527.3
N5120 X39.914 Z3.324 A-14348.473 F2359.
N5125 X39.913 Z3.168 A-14351.889 F2825.2
N5130 X39.912 Z2.998 A-14355.349 F2773.5
N5135 Z2.834 A-14358.569 F3000.1
N5140 X39.911 Z2.652 A-14361.956 F2860.5
N5145 X39.91 Z2.469 A-14365.185 F3008.9
N5150 X39.909 Z2.288 A-14368.261 F3197.
N5155 X39.908 Z2.143 A-14370.689 F4129.8
N5160 X39.907 Z1.946 A-14373.931 F3142.8
N5165 X39.906 Z1.704 A-14377.868 F2659.5
N5170 X39.905 Z1.433 A-14382.188 F2501.6
N5175 X39.904 Z1.199 A-14386.04 F3025.5
N5180 X39.903 Z0.935 A-14390.513 F2798.7
N5185 X39.901 Z0.681 A-14395.329 F3009.
N5190 Z0.63 A-14396.236 F9999.
N5195 Z0.579 A-14397.302 F9999.
N5200 X39.9 Z0.478 A-14400.112 F7727.
N5205 Z0.479 A-14400.123 F9999.
N5210 X39.899 Z0.662 A-14404.287 F4316.7
N5215 X39.898 Z0.895 A-14408.809 F3295.3
N5220 X39.896 Z1.16 A-14413.399 F2797.
N5225 X39.895 Z1.414 A-14417.558 F2802.5
N5230 Z1.51 A-14419.132 F7281.3
N5235 X39.894 Z1.716 A-14422.319 F3308.7
N5240 X39.893 Z1.984 A-14426.683 F2386.9
N5245 X39.891 Z2.224 A-14430.636 F2546.
N5250 X39.89 Z2.458 A-14434.655 F2457.6
N5255 X39.889 Z2.669 A-14438.395 F2598.7
N5260 X39.888 Z2.855 A-14441.834 F2798.9
N5265 X39.887 Z3.038 A-14445.433 F2674.9
N5270 X39.886 Z3.204 A-14448.902 F2774.5
N5275 X39.885 Z3.358 A-14452.316 F2824.
N5280 X39.884 Z3.513 A-14456.073 F2594.5
N5285 X39.883 Z3.657 A-14459.929 F2561.7
N5290 X39.882 Z3.781 A-14463.621 F2719.8
N5295 X39.881 Z3.896 A-14467.588 F2598.2
N5300 X39.88 Z3.987 A-14471.179 F2942.4
N5305 X39.879 Z4.068 A-14475.28 F2684.8
N5310 X39.878 Z4.126 A-14479.113 F2991.1
N5315 X39.877 Z4.164 A-14482.572 F3456.5
N5320 X39.876 Z4.187 A-14486.128 F3541.4
N5325 X39.875 Z4.194 A-14490.181 F3286.9
N5330 X39.874 Z4.185 A-14494.259 F3249.7
N5335 X39.873 Z4.163 A-14497.638 F3720.7
N5340 X39.872 Z4.119 A-14501.493 F3083.5
N5345 X39.871 Z4.056 A-14505.383 F2918.5
N5350 X39.87 Z3.98 A-14509.085 F2957.8
N5355 X39.869 Z3.883 A-14512.926 F2752.1
N5360 X39.868 Z3.769 A-14516.782 F2662.8
N5365 X39.866 Z3.629 A-14520.855 F2452.6
N5370 X39.865 Z3.489 A-14524.541 F2674.8
N5375 X39.864 Z3.338 A-14528.144 F2704.9
N5380 X39.863 Z3.167 A-14531.888 F2567.7
N5385 X39.862 Z2.998 A-14535.35 F2776.6
N5390 Z2.834 A-14538.569 F3002.7
N5395 X39.86 Z2.628 A-14542.35 F2544.3
N5400 X39.859 Z2.419 A-14546.042 F2644.3
N5405 X39.858 Z2.205 A-14549.705 F2712.6
N5410 X39.857 Z1.944 A-14553.964 F2356.
N5415 X39.856 Z1.7 A-14557.93 F2639.7
N5420 X39.855 Z1.422 A-14562.325 F2451.4
N5425 X39.854 Z1.18 A-14566.331 F2925.5
N5430 X39.852 Z0.873 A-14571.559 F2410.6
N5435 X39.851 Z0.64 A-14576.225 F3287.3
N5440 X39.85 Z0.479 A-14579.892 F4951.9
N5445 A-14579.907 F9999.
N5450 X39.849 Z0.575 A-14582.59 F8159.3
N5455 Z0.623 A-14583.622 F9999.
N5460 Z0.671 A-14584.505 F9999.
N5465 X39.847 Z0.917 A-14589.168 F3122.5
N5470 X39.846 Z1.195 A-14593.904 F2656.5
N5475 X39.845 Z1.458 A-14598.176 F2688.
N5480 X39.844 Z1.727 A-14602.522 F2496.2
N5485 X39.843 Z1.958 A-14606.223 F2802.2
N5490 X39.842 Z2.184 A-14609.963 F2709.7
N5495 X39.841 Z2.385 A-14613.378 F2914.
N5500 X39.84 Z2.56 A-14616.427 F3219.4
N5505 X39.839 Z2.716 A-14619.238 F3456.6
N5510 X39.838 Z2.876 A-14622.257 F3203.6
N5515 X39.837 Z3.04 A-14625.483 F2987.7
N5520 X39.836 Z3.192 A-14628.608 F3065.5
N5525 X39.835 Z3.36 A-14632.359 F2579.3
N5530 Z3.503 A-14635.777 F2840.
N5535 X39.833 Z3.648 A-14639.623 F2564.7
N5540 X39.832 Z3.772 A-14643.289 F2737.5
N5545 X39.831 Z3.877 A-14646.828 F2906.3
N5550 X39.83 Z3.965 A-14650.289 F3049.8
N5555 Z4.029 A-14653.193 F3729.9
N5560 X39.829 Z4.079 A-14655.958 F4040.9
N5565 X39.828 Z4.127 A-14659.164 F3590.2
N5570 X39.827 Z4.164 A-14662.622 F3465.8
N5575 X39.826 Z4.187 A-14666.189 F3533.
N5580 X39.825 Z4.194 A-14669.735 F3745.9
N5585 X39.824 Z4.187 A-14673.813 F3277.4
N5590 X39.823 Z4.17 A-14676.52 F4651.8
N5595 X39.822 Z4.145 A-14679.213 F4515.4
N5600 Z4.122 A-14681.31 F5723.8
N5605 X39.821 Z4.067 A-14684.847 F3229.3
N5610 X39.82 Z4.001 A-14688.156 F3321.9
N5615 X39.819 Z3.921 A-14691.484 F3207.
N5620 X39.818 Z3.84 A-14694.469 F3499.1
N5625 X39.817 Z3.754 A-14697.222 F3700.1
N5630 Z3.641 A-14700.555 F3022.
N5635 X39.815 Z3.501 A-14704.261 F2663.
N5640 X39.814 Z3.336 A-14708.2 F2460.1
N5645 X39.813 Z3.165 A-14711.943 F2572.7
N5650 X39.812 Z2.995 A-14715.403 F2774.5
N5655 X39.811 Z2.83 A-14718.627 F2996.8
N5660 Z2.648 A-14722.018 F2860.8
N5665 X39.81 Z2.441 A-14725.676 F2659.9
N5670 X39.809 Z2.229 A-14729.284 F2729.1
N5675 X39.808 Z2.041 A-14732.353 F3255.4
N5680 X39.807 Z1.901 A-14734.643 F4521.3
N5685 X39.806 Z1.696 A-14737.984 F3166.5
N5690 X39.805 Z1.479 A-14741.44 F3126.8
N5695 X39.804 Z1.187 A-14746.236 F2404.1
N5700 X39.803 Z0.997 A-14749.345 F3942.4
N5705 X39.802 Z0.903 A-14751.06 F8043.7
N5710 X39.801 Z0.662 A-14755.72 F3181.5
N5715 Z0.616 A-14756.569 F9999.
N5720 Z0.57 A-14757.556 F9999.
N5725 X39.8 Z0.478 A-14760.101 F8548.
N5730 A-14760.112 F9999.
N5735 X39.799 Z0.662 A-14764.287 F4305.1
N5740 X39.798 Z0.895 A-14768.809 F3295.3
N5745 X39.796 Z1.16 A-14773.399 F2797.
N5750 X39.795 Z1.417 A-14777.604 F2766.2
N5755 X39.794 Z1.553 A-14779.869 F5076.7
N5760 Z1.717 A-14782.331 F4197.9
N5765 X39.793 Z1.985 A-14786.694 F2386.4
N5770 X39.791 Z2.224 A-14790.644 F2545.8
N5775 X39.79 Z2.458 A-14794.66 F2461.4
N5780 X39.789 Z2.669 A-14798.399 F2599.7
N5785 X39.788 Z2.855 A-14801.838 F2799.2
N5790 X39.787 Z3.038 A-14805.437 F2674.5
N5795 X39.786 Z3.204 A-14808.906 F2775.2
N5800 X39.785 Z3.358 A-14812.319 F2823.2
N5805 X39.784 Z3.513 A-14816.076 F2595.1
N5810 X39.783 Z3.658 A-14819.933 F2561.2
N5815 X39.782 Z3.782 A-14823.624 F2720.2
N5820 X39.781 Z3.897 A-14827.592 F2598.1
N5825 X39.78 Z3.987 A-14831.184 F2941.8
N5830 X39.779 Z4.068 A-14835.285 F2684.8
N5835 X39.778 Z4.126 A-14839.119 F2990.3
N5840 X39.777 Z4.164 A-14842.581 F3454.2
N5845 X39.776 Z4.187 A-14846.139 F3539.7
N5850 X39.775 Z4.194 A-14850.193 F3286.6
N5855 X39.774 Z4.185 A-14854.271 F3248.5
N5860 X39.773 Z4.163 A-14857.65 F3720.2
N5865 X39.772 Z4.118 A-14861.51 F3078.8
N5870 X39.771 Z4.055 A-14865.406 F2912.8
N5875 X39.77 Z3.979 A-14869.103 F2961.7
N5880 X39.769 Z3.883 A-14872.938 F2756.4
N5885 X39.768 Z3.768 A-14876.796 F2661.1
N5890 X39.766 Z3.629 A-14880.864 F2455.9
N5895 X39.765 Z3.489 A-14884.55 F2677.
N5900 X39.764 Z3.338 A-14888.147 F2708.9
N5905 X39.763 Z3.166 A-14891.902 F2558.
N5910 X39.762 Z2.998 A-14895.363 F2777.
N5915 Z2.833 A-14898.583 F3001.7
N5920 X39.76 Z2.627 A-14902.365 F2547.2
N5925 X39.759 Z2.418 A-14906.059 F2641.9
N5930 X39.758 Z2.204 A-14909.726 F2708.
N5935 X39.757 Z1.943 A-14913.988 F2354.
N5940 X39.756 Z1.698 A-14917.959 F2636.7
N5945 X39.755 Z1.42 A-14922.362 F2449.4
N5950 X39.754 Z1.176 A-14926.391 F2905.8
N5955 X39.753 Z0.972 A-14929.714 F3667.6
N5960 X39.752 Z0.867 A-14931.663 F7256.1
N5965 X39.751 Z0.582 A-14937.529 F2680.8
N5970 X39.75 Z0.479 A-14939.902 F7814.6
N5975 A-14939.914 F9999.
N5980 X39.749 Z0.57 A-14942.441 F8621.4
N5985 Z0.616 A-14943.424 F9999.
N5990 Z0.661 A-14944.27 F9999.
N5995 X39.748 Z0.845 A-14947.996 F4187.7
N6000 X39.747 Z0.954 A-14949.921 F7097.4
N6005 X39.746 Z1.204 A-14954.088 F2961.
N6010 X39.745 Z1.437 A-14957.874 F3049.1
N6015 X39.744 Z1.711 A-14962.223 F2480.7
N6020 X39.743 Z1.965 A-14966.336 F2528.5
N6025 X39.742 Z2.206 A-14970.308 F2540.9
N6030 X39.741 Z2.403 A-14973.672 F2958.3
N6035 X39.74 Z2.597 A-14977.104 F2855.1
N6040 X39.739 Z2.749 A-14979.873 F3514.4
N6045 X39.738 Z2.889 A-14982.495 F3677.9
N6050 X39.737 Z3.035 A-14985.359 F3358.7
N6055 X39.736 Z3.201 A-14988.828 F2774.8
N6060 X39.735 Z3.355 A-14992.239 F2825.9
N6065 Z3.498 A-14995.655 F2847.7
N6070 X39.733 Z3.644 A-14999.496 F2564.3
N6075 X39.732 Z3.767 A-15003.154 F2745.2
N6080 X39.731 Z3.872 A-15006.681 F2912.5
N6085 Z3.961 A-15010.112 F3072.1
N6090 X39.73 Z4.026 A-15013.016 F3719.5
N6095 X39.729 Z4.08 A-15016.016 F3727.1
N6100 X39.728 Z4.124 A-15018.917 F3953.6
N6105 X39.727 Z4.161 A-15022.23 F3602.
N6110 X39.726 Z4.184 A-15025.642 F3675.6
N6115 X39.725 Z4.194 A-15029.637 F3308.6
N6120 X39.724 Z4.188 A-15033.715 F3279.2
N6125 X39.723 Z4.162 A-15037.683 F3171.
N6130 X39.722 Z4.125 A-15041.077 F3524.4
N6135 X39.721 Z4.069 A-15044.696 F3160.1
N6140 X39.72 Z4.003 A-15048.045 F3288.4
N6145 X39.719 Z3.924 A-15051.372 F3212.3
N6150 X39.718 Z3.854 A-15053.917 F4096.9
N6155 Z3.77 A-15056.753 F3634.3
N6160 X39.717 Z3.658 A-15060.075 F3025.3
N6165 X39.716 Z3.538 A-15063.272 F3083.5
N6170 X39.715 Z3.455 A-15065.365 F4719.6
N6175 X39.714 Z3.323 A-15068.455 F3144.1
N6180 X39.713 Z3.168 A-15071.869 F2831.
N6185 X39.712 Z2.999 A-15075.328 F2777.7
N6190 Z2.835 A-15078.548 F3002.4
N6195 X39.711 Z2.653 A-15081.934 F2859.4
N6200 X39.71 Z2.446 A-15085.584 F2664.1
N6205 X39.709 Z2.262 A-15088.711 F3143.2
N6210 X39.708 Z2.113 A-15091.186 F4060.7
N6215 X39.707 Z1.948 A-15093.906 F3769.1
N6220 X39.706 Z1.706 A-15097.843 F2658.
N6225 X39.705 Z1.436 A-15102.161 F2507.4
N6230 X39.704 Z1.198 A-15106.058 F2978.9
N6235 X39.703 Z0.922 A-15110.748 F2677.
N6240 X39.701 Z0.671 A-15115.527 F3053.8
N6245 Z0.623 A-15116.401 F9999.
N6250 Z0.574 A-15117.423 F9999.
N6255 X39.7 Z0.478 A-15120.09 F8120.6
N6260 A-15120.101 F9999.
N6265 X39.699 Z0.662 A-15124.287 F4293.5
N6270 X39.698 Z0.895 A-15128.809 F3295.3
N6275 X39.696 Z1.16 A-15133.399 F2797.
N6280 X39.695 Z1.429 A-15137.771 F2640.4
N6285 X39.694 Z1.716 A-15142.309 F2367.
N6290 X39.693 Z1.984 A-15146.675 F2384.7
N6295 X39.691 Z2.224 A-15150.628 F2543.1
N6300 X39.69 Z2.458 A-15154.645 F2460.6
N6305 X39.689 Z2.668 A-15158.384 F2600.6
N6310 X39.688 Z2.854 A-15161.824 F2799.1
N6315 X39.687 Z3.038 A-15165.424 F2670.9
N6320 X39.686 Z3.204 A-15168.893 F2775.7
N6325 X39.685 Z3.358 A-15172.308 F2823.8
N6330 X39.684 Z3.513 A-15176.065 F2595.6
N6335 X39.683 Z3.657 A-15179.919 F2562.7
N6340 X39.682 Z3.781 A-15183.612 F2718.8
N6345 X39.681 Z3.896 A-15187.579 F2598.5
N6350 X39.68 Z3.986 A-15191.168 F2943.5
N6355 X39.679 Z4.068 A-15195.268 F2684.6
N6360 X39.678 Z4.126 A-15199.099 F2992.7
N6365 X39.677 Z4.164 A-15202.552 F3461.
N6370 X39.676 Z4.187 A-15206.098 F3550.2
N6375 X39.675 Z4.194 A-15210.15 F3287.4
N6380 X39.674 Z4.185 A-15214.227 F3252.6
N6385 X39.673 Z4.163 A-15217.607 F3721.5
N6390 X39.672 Z4.119 A-15221.454 F3091.6
N6395 X39.671 Z4.057 A-15225.329 F2931.6
N6400 X39.67 Z3.981 A-15229.051 F2942.5
N6405 X39.669 Z3.884 A-15232.905 F2742.3
N6410 X39.668 Z3.77 A-15236.758 F2665.8
N6415 X39.666 Z3.638 A-15240.643 F2579.7
N6420 X39.665 Z3.49 A-15244.526 F2534.9
N6425 X39.664 Z3.331 A-15248.293 F2577.1
N6430 X39.663 Z3.168 A-15251.879 F2688.6
N6435 X39.662 Z2.999 A-15255.339 F2776.6
N6440 Z2.834 A-15258.558 F3003.6
N6445 X39.66 Z2.629 A-15262.338 F2549.
N6450 X39.659 Z2.42 A-15266.03 F2644.8
N6455 X39.658 Z2.206 A-15269.693 F2706.
N6460 X39.657 Z1.945 A-15273.95 F2357.9
N6465 X39.656 Z1.701 A-15277.912 F2640.8
N6470 X39.655 Z1.425 A-15282.302 F2460.8
N6475 X39.654 Z1.18 A-15286.327 F2899.8
N6480 X39.652 Z0.874 A-15291.552 F2413.
N6485 X39.651 Z0.634 A-15296.36 F3195.
N6490 X39.65 Z0.479 A-15299.903 F5148.
N6495 A-15299.919 F9999.
N6500 X39.649 Z0.584 A-15302.887 F7384.3
N6505 Z0.637 A-15304.002 F9999.
N6510 Z0.69 A-15304.945 F9999.
N6515 X39.648 Z0.896 A-15308.821 F3757.3
N6520 X39.647 Z1.104 A-15312.522 F3581.2
N6525 X39.646 Z1.186 A-15313.756 F9259.4
N6530 X39.645 Z1.434 A-15317.828 F2859.1
N6535 X39.644 Z1.702 A-15322.083 F2537.3
N6540 X39.643 Z1.958 A-15326.221 F2516.3
N6545 X39.642 Z2.199 A-15330.199 F2539.5
N6550 X39.641 Z2.425 A-15334.039 F2575.7
N6555 X39.64 Z2.616 A-15337.438 F2881.9
N6560 X39.639 Z2.786 A-15340.568 F3107.6
N6565 X39.638 Z2.903 A-15342.796 F4342.1
N6570 X39.637 Z3.032 A-15345.297 F3833.7
N6575 X39.636 Z3.199 A-15348.767 F2770.2
N6580 Z3.353 A-15352.179 F2826.6
N6585 X39.634 Z3.509 A-15355.939 F2593.4
N6590 X39.633 Z3.641 A-15359.436 F2815.7
N6595 X39.632 Z3.765 A-15363.09 F2746.9
N6600 X39.631 Z3.87 A-15366.607 F2919.2
N6605 Z3.959 A-15370.031 F3075.8
N6610 X39.63 Z4.024 A-15372.946 F3709.7
N6615 X39.629 Z4.072 A-15375.571 F4253.5
N6620 X39.628 Z4.124 A-15378.829 F3498.8
N6625 X39.627 Z4.162 A-15382.255 F3485.4
N6630 X39.626 Z4.185 A-15385.734 F3605.1
N6635 X39.625 Z4.194 A-15389.71 F3330.9
N6640 X39.624 Z4.187 A-15393.788 F3278.
N6645 X39.623 Z4.16 A-15397.825 F3104.2
N6650 X39.622 Z4.123 A-15401.254 F3490.4
N6655 X39.621 Z4.067 A-15404.816 F3204.6
N6660 X39.62 Z3.99 A-15408.669 F2849.6
N6665 X39.619 Z3.91 A-15411.925 F3258.9
N6670 X39.618 Z3.827 A-15414.885 F3510.
N6675 X39.617 Z3.754 A-15417.208 F4380.9
N6680 Z3.655 A-15420.176 F3407.5
N6685 X39.616 Z3.521 A-15423.718 F2783.3
N6690 X39.615 Z3.394 A-15426.801 F3156.
N6695 X39.614 Z3.305 A-15428.861 F4753.6
N6700 X39.613 Z3.164 A-15431.949 F3129.
N6705 X39.612 Z2.995 A-15435.41 F2776.4
N6710 X39.611 Z2.83 A-15438.634 F2997.1
N6715 Z2.648 A-15442.026 F2859.8
N6720 X39.61 Z2.441 A-15445.686 F2659.2
N6725 X39.609 Z2.228 A-15449.299 F2725.6
N6730 X39.608 Z2.04 A-15452.373 F3250.4
N6735 X39.607 Z1.898 A-15454.665 F4479.4
N6740 X39.606 Z1.695 A-15458.011 F3180.9
N6745 X39.605 Z1.477 A-15461.478 F3122.
N6750 X39.604 Z1.181 A-15466.313 F2380.9
N6755 X39.603 Z0.989 A-15469.504 F3869.3
N6760 X39.602 Z0.891 A-15471.257 F7825.4
N6765 X39.601 Z0.638 A-15476.277 F3014.6
N6770 Z0.557 A-15477.909 F9999.
N6775 X39.6 Z0.477 A-15480.09 F9891.5
N6780 Z0.478 A-15480.101 F9999.
N6785 X39.599 Z0.662 A-15484.287 F4293.5
N6790 X39.598 Z0.895 A-15488.809 F3295.3
N6795 X39.596 Z1.164 A-15493.455 F2754.9
N6800 X39.595 Z1.42 A-15497.647 F2773.6
N6805 Z1.514 A-15499.207 F7410.7
N6810 X39.594 Z1.72 A-15502.377 F3321.4
N6815 X39.593 Z1.987 A-15506.734 F2389.5
N6820 X39.591 Z2.227 A-15510.678 F2546.7
N6825 X39.59 Z2.46 A-15514.688 F2464.
N6830 X39.589 Z2.67 A-15518.424 F2603.6
N6835 X39.588 Z2.856 A-15521.861 F2801.1
N6840 X39.587 Z3.039 A-15525.46 F2671.2
N6845 X39.586 Z3.206 A-15528.928 F2776.
N6850 X39.585 Z3.359 A-15532.34 F2826.5
N6855 X39.584 Z3.514 A-15536.097 F2596.1
N6860 X39.583 Z3.658 A-15539.959 F2558.5
N6865 X39.582 Z3.782 A-15543.647 F2723.
N6870 X39.581 Z3.897 A-15547.617 F2597.2
N6875 X39.58 Z3.987 A-15551.214 F2938.4
N6880 X39.579 Z4.068 A-15555.316 F2685.
N6885 X39.578 Z4.127 A-15559.16 F2984.7
N6890 X39.577 Z4.164 A-15562.641 F3438.3
N6895 X39.576 Z4.187 A-15566.219 F3524.4
N6900 X39.575 Z4.194 A-15570.27 F3290.
N6905 X39.574 Z4.184 A-15574.348 F3241.3
N6910 X39.573 Z4.162 A-15577.726 F3716.6
N6915 X39.572 Z4.116 A-15581.618 F3048.8
N6920 X39.571 Z4.06 A-15585.18 F3204.7
N6925 X39.57 Z3.982 A-15588.997 F2867.6
N6930 X39.569 Z3.878 A-15593.092 F2570.7
N6935 X39.568 Z3.764 A-15596.923 F2678.9
N6940 X39.566 Z3.639 A-15600.614 F2723.2
N6945 X39.565 Z3.492 A-15604.473 F2551.3
N6950 X39.564 Z3.334 A-15608.234 F2585.5
N6955 X39.563 Z3.162 A-15611.983 F2561.6
N6960 X39.562 Z3.012 A-15615.094 F3109.6
N6965 X39.561 Z2.828 A-15618.671 F2682.7
N6970 X39.56 Z2.622 A-15622.458 F2546.3
N6975 X39.559 Z2.412 A-15626.161 F2636.8
N6980 X39.558 Z2.196 A-15629.84 F2699.
N6985 X39.557 Z1.97 A-15633.571 F2706.8
N6990 X39.556 Z1.687 A-15638.124 F2274.8
N6995 X39.555 Z1.464 A-15641.693 F3051.5
N7000 X39.554 Z1.155 A-15646.702 F2285.5
N7005 X39.553 Z0.948 A-15650.203 F3597.6
N7010 X39.552 Z0.774 A-15653.232 F4465.2
N7015 X39.551 Z0.623 A-15656.611 F5091.3
N7020 X39.55 Z0.478 A-15659.92 F5542.5
N7025 Z0.479 A-15659.934 F9999.
N7030 X39.549 Z0.576 A-15662.635 F8064.8
N7035 Z0.624 A-15663.67 F9999.
N7040 Z0.673 A-15664.555 F9999.
N7045 X39.548 Z0.875 A-15668.474 F3832.5
N7050 X39.547 Z1.022 A-15671.11 F5148.2
N7055 X39.546 Z1.219 A-15674.367 F3747.2
N7060 X39.545 Z1.435 A-15677.838 F3309.1
N7065 X39.544 Z1.704 A-15682.126 F2516.4
N7070 X39.543 Z1.96 A-15686.251 F2523.7
N7075 X39.542 Z2.2 A-15690.226 F2541.
N7080 X39.541 Z2.426 A-15694.064 F2576.8
N7085 X39.54 Z2.618 A-15697.461 F2883.6
N7090 X39.539 Z2.787 A-15700.589 F3109.
N7095 X39.538 Z2.904 A-15702.817 F4343.6
N7100 X39.537 Z3.033 A-15705.317 F3836.7
N7105 X39.536 Z3.2 A-15708.786 F2770.
N7110 X39.535 Z3.354 A-15712.198 F2826.7
N7115 X39.534 Z3.509 A-15715.959 F2593.9
N7120 X39.533 Z3.642 A-15719.456 F2814.3
N7125 X39.532 Z3.766 A-15723.113 F2745.7
N7130 X39.531 Z3.871 A-15726.628 F2921.4
N7135 Z3.959 A-15730.055 F3073.
N7140 X39.53 Z4.024 A-15732.982 F3698.4
N7145 X39.529 Z4.073 A-15735.609 F4255.1
N7150 X39.528 Z4.124 A-15738.866 F3499.1
N7155 X39.527 Z4.162 A-15742.303 F3472.7
N7160 X39.526 Z4.186 A-15745.823 F3564.1
N7165 X39.525 Z4.194 A-15749.783 F3351.7
N7170 X39.524 Z4.187 A-15753.861 F3275.2
N7175 X39.523 Z4.17 A-15756.568 F4648.5
N7180 X39.522 Z4.144 A-15759.261 F4508.5
N7185 Z4.121 A-15761.372 F5680.6
N7190 X39.521 Z4.066 A-15764.877 F3260.8
N7195 X39.52 Z3.988 A-15768.736 F2843.
N7200 X39.519 Z3.908 A-15771.998 F3250.
N7205 X39.518 Z3.814 A-15775.298 F3136.4
N7210 X39.517 Z3.741 A-15777.592 F4429.3
N7215 X39.516 Z3.633 A-15780.769 F3166.6
N7220 X39.515 Z3.492 A-15784.472 F2664.9
N7225 X39.514 Z3.335 A-15788.233 F2585.8
N7230 X39.513 Z3.162 A-15791.983 F2561.3
N7235 X39.512 Z3.012 A-15795.093 F3109.5
N7240 X39.511 Z2.828 A-15798.671 F2682.3
N7245 Z2.645 A-15802.065 F2857.9
N7250 X39.51 Z2.438 A-15805.729 F2659.
N7255 X39.509 Z2.225 A-15809.349 F2720.9
N7260 X39.508 Z2.004 A-15812.986 F2756.9
N7265 X39.507 Z1.813 A-15816.029 F3362.8
N7270 X39.506 Z1.69 A-15818.087 F5316.4
N7275 X39.505 Z1.471 A-15821.579 F3112.6
N7280 X39.504 Z1.172 A-15826.455 F2353.4
N7285 X39.503 Z0.98 A-15829.668 F3891.
N7290 X39.502 Z0.824 A-15832.394 F4923.
N7295 X39.501 Z0.669 A-15835.58 F4981.5
N7300 Z0.621 A-15836.443 F9999.
N7305 Z0.572 A-15837.452 F9999.
N7310 X39.5 Z0.477 A-15840.078 F8211.4
N7315 A-15840.09 F9999.
N7320 X39.499 Z0.662 A-15844.287 F4282.
N7325 X39.498 Z0.895 A-15848.809 F3295.3
N7330 X39.496 Z1.174 A-15853.597 F2651.3
N7335 X39.495 Z1.464 A-15858.286 F2438.7
N7340 X39.494 Z1.722 A-15862.408 F2621.6
N7345 X39.493 Z1.989 A-15866.759 F2392.8
N7350 X39.491 Z2.228 A-15870.7 F2548.2
N7355 X39.49 Z2.461 A-15874.707 F2465.1
N7360 X39.489 Z2.671 A-15878.441 F2605.6
N7365 X39.488 Z2.857 A-15881.877 F2802.3
N7370 X39.487 Z3.04 A-15885.475 F2671.3
N7375 X39.486 Z3.206 A-15888.942 F2774.9
N7380 X39.485 Z3.36 A-15892.354 F2828.1
N7385 X39.484 Z3.515 A-15896.113 F2595.9
N7390 X39.483 Z3.659 A-15899.975 F2558.3
N7395 X39.482 Z3.782 A-15903.661 F2724.7
N7400 X39.481 Z3.897 A-15907.633 F2596.5
N7405 X39.48 Z3.987 A-15911.234 F2935.9
N7410 X39.479 Z4.069 A-15915.336 F2685.
N7415 X39.478 Z4.12 A-15918.605 F3486.1
N7420 X39.477 Z4.165 A-15922.683 F2936.2
N7425 X39.476 Z4.187 A-15926.281 F3508.5
N7430 X39.475 Z4.194 A-15930.332 F3290.1
N7435 X39.474 Z4.183 A-15934.411 F3235.4
N7440 X39.473 Z4.161 A-15937.788 F3713.7
N7445 X39.472 Z4.124 A-15941.15 F3556.1
N7450 X39.471 Z4.057 A-15945.301 F2739.5
N7455 X39.47 Z3.978 A-15949.15 F2838.4
N7460 X39.469 Z3.878 A-15953.077 F2686.4
N7465 X39.468 Z3.765 A-15956.879 F2701.
N7470 X39.466 Z3.631 A-15960.8 F2553.3
N7475 X39.465 Z3.484 A-15964.664 F2548.
N7480 X39.464 Z3.325 A-15968.429 F2578.2
N7485 X39.463 Z3.17 A-15971.842 F2833.8
N7490 X39.462 Z3.001 A-15975.301 F2775.
N7495 X39.461 Z2.815 A-15978.884 F2679.9
N7500 X39.46 Z2.632 A-15982.294 F2845.5
N7505 X39.459 Z2.423 A-15985.981 F2647.3
N7510 X39.458 Z2.178 A-15990.112 F2380.
N7515 X39.457 Z1.95 A-15993.886 F2691.9
N7520 X39.456 Z1.706 A-15997.833 F2648.7
N7525 X39.455 Z1.436 A-16002.174 F2498.3
N7530 X39.454 Z1.187 A-16006.227 F2859.4
N7535 X39.452 Z0.881 A-16011.425 F2416.7
N7540 X39.451 Z0.644 A-16016.14 F3223.1
N7545 X39.45 Z0.479 A-16019.916 F4828.3
N7550 Z0.478 A-16019.932 F9999.
N7555 X39.449 Z0.581 A-16022.817 F7559.4
N7560 Z0.633 A-16023.906 F9999.
N7565 Z0.685 A-16024.83 F9999.
N7570 X39.448 Z0.885 A-16028.638 F3877.3
N7575 X39.447 Z1.094 A-16032.363 F3566.3
N7580 X39.446 Z1.234 A-16034.629 F5301.3
N7585 X39.445 Z1.481 A-16038.575 F2860.5
N7590 X39.444 Z1.721 A-16042.388 F2826.5
N7595 X39.443 Z1.968 A-16046.385 F2600.6
N7600 X39.442 Z2.192 A-16050.087 F2734.
N7605 X39.441 Z2.419 A-16053.94 F2568.9
N7610 X39.44 Z2.635 A-16057.753 F2554.7
N7615 X39.438 Z2.844 A-16061.609 F2495.6
N7620 X39.437 Z3.045 A-16065.574 F2430.5
N7625 X39.436 Z3.196 A-16068.694 F3075.3
N7630 X39.435 Z3.363 A-16072.446 F2578.1
N7635 X39.434 Z3.506 A-16075.866 F2842.4
N7640 Z3.639 A-16079.36 F2820.7
N7645 X39.432 Z3.763 A-16083.01 F2749.4
N7650 X39.431 Z3.88 A-16086.937 F2611.2
N7655 X39.43 Z3.968 A-16090.396 F3055.1
N7660 X39.429 Z4.041 A-16093.834 F3165.7
N7665 Z4.082 A-16096.149 F4859.6
N7670 X39.428 Z4.122 A-16098.675 F4510.2
N7675 X39.427 Z4.159 A-16102.029 F3563.8
N7680 X39.426 Z4.182 A-16105.359 F3755.8
N7685 Z4.19 A-16108.048 F4893.7
N7690 X39.425 Z4.193 A-16110.757 F4950.9
N7695 X39.424 Z4.184 A-16114.39 F3626.9
N7700 X39.423 Z4.161 A-16117.762 F3721.6
N7705 X39.422 Z4.12 A-16121.391 F3287.
N7710 X39.421 Z4.066 A-16124.888 F3268.4
N7715 X39.42 Z3.988 A-16128.749 F2841.4
N7720 X39.419 Z3.907 A-16132.01 F3250.2
N7725 X39.418 Z3.813 A-16135.327 F3119.1
N7730 X39.417 Z3.751 A-16137.272 F5223.1
N7735 Z3.646 A-16140.436 F3205.4
N7740 X39.415 Z3.499 A-16144.303 F2545.8
N7745 X39.414 Z3.334 A-16148.246 F2460.8
N7750 X39.413 Z3.162 A-16151.995 F2562.7
N7755 X39.412 Z3.012 A-16155.105 F3107.6
N7760 X39.411 Z2.827 A-16158.684 F2682.1
N7765 Z2.645 A-16162.079 F2856.9
N7770 X39.41 Z2.438 A-16165.745 F2658.7
N7775 X39.409 Z2.224 A-16169.368 F2719.3
N7780 X39.407 Z1.971 A-16173.564 F2402.8
N7785 X39.406 Z1.729 A-16177.458 F2659.1
N7790 X39.405 Z1.467 A-16181.659 F2575.1
N7795 X39.404 Z1.24 A-16185.27 F3135.3
N7800 Z1.163 A-16186.576 F9497.5
N7805 X39.403 Z0.972 A-16189.821 F3893.2
N7810 X39.402 Z0.757 A-16193.628 F3574.8
N7815 X39.401 Z0.565 A-16197.922 F4020.4
N7820 X39.4 Z0.476 A-16200.067 F9084.3
N7825 Z0.477 A-16200.078 F9999.
N7830 X39.399 Z0.662 A-16204.287 F4270.6
N7835 X39.398 Z0.895 A-16208.809 F3295.3
N7840 X39.396 Z1.186 A-16213.752 F2544.4
N7845 X39.395 Z1.456 A-16218.141 F2619.4
N7850 X39.394 Z1.726 A-16222.484 F2491.8
N7855 X39.393 Z1.992 A-16226.82 F2401.
N7860 X39.391 Z2.231 A-16230.749 F2554.
N7865 X39.39 Z2.464 A-16234.747 F2469.7
N7870 X39.389 Z2.673 A-16238.477 F2608.8
N7875 X39.388 Z2.858 A-16241.911 F2804.3
N7880 X39.387 Z3.042 A-16245.508 F2671.4
N7885 X39.386 Z3.208 A-16248.974 F2774.9
N7890 X39.385 Z3.361 A-16252.384 F2830.5
N7895 X39.384 Z3.516 A-16256.147 F2594.3
N7900 X39.383 Z3.66 A-16260.01 F2558.1
N7905 X39.382 Z3.783 A-16263.692 F2728.3
N7910 X39.381 Z3.898 A-16267.672 F2591.7
N7915 X39.38 Z3.988 A-16271.271 F2938.2
N7920 X39.379 Z4.069 A-16275.376 F2684.5
N7925 X39.378 Z4.121 A-16278.661 F3464.7
N7930 X39.377 Z4.165 A-16282.775 F2919.2
N7935 X39.376 Z4.187 A-16286.428 F3464.6
N7940 X39.375 Z4.193 A-16289.13 F4899.8
N7945 Z4.194 A-16290.48 F9999.
N7950 X39.374 Z4.182 A-16294.561 F3221.8
N7955 X39.373 Z4.159 A-16297.937 F3706.7
N7960 X39.372 Z4.121 A-16301.349 F3505.3
N7965 X39.371 Z4.054 A-16305.461 F2753.1
N7970 X39.37 Z3.975 A-16309.263 F2872.7
N7975 X39.369 Z3.884 A-16312.892 F2920.7
N7980 X39.368 Z3.764 A-16316.927 F2537.
N7985 X39.366 Z3.63 A-16320.83 F2565.7
N7990 X39.365 Z3.482 A-16324.692 F2548.6
N7995 X39.364 Z3.34 A-16328.115 F2853.4
N8000 X39.363 Z3.168 A-16331.872 F2560.4
N8005 X39.362 Z2.999 A-16335.331 F2774.4
N8010 Z2.835 A-16338.548 F3004.2
N8015 X39.36 Z2.63 A-16342.328 F2549.2
N8020 X39.359 Z2.421 A-16346.018 F2645.5
N8025 X39.358 Z2.206 A-16349.68 F2707.5
N8030 X39.357 Z1.946 A-16353.934 F2360.
N8035 X39.356 Z1.703 A-16357.89 F2643.9
N8040 X39.355 Z1.431 A-16362.244 F2491.1
N8045 X39.354 Z1.181 A-16366.311 F2851.6
N8050 X39.352 Z0.876 A-16371.525 F2418.7
N8055 X39.351 Z0.632 A-16376.395 F3148.7
N8060 X39.35 Z0.479 A-16379.929 F5188.
N8065 Z0.478 A-16379.944 F9999.
N8070 X39.349 Z0.561 A-16382.196 F9572.6
N8075 Z0.644 A-16383.868 F9816.7
N8080 X39.347 Z0.932 A-16389.433 F2644.4
N8085 X39.346 Z1.214 A-16394.264 F2599.
N8090 X39.345 Z1.465 A-16398.294 F2826.9
N8095 X39.344 Z1.734 A-16402.622 F2498.2
N8100 X39.343 Z1.983 A-16406.662 F2570.5
N8105 X39.342 Z2.19 A-16410.06 F2968.1
N8110 X39.341 Z2.417 A-16413.918 F2565.7
N8115 X39.34 Z2.634 A-16417.734 F2552.5
N8120 X39.338 Z2.843 A-16421.593 F2493.4
N8125 X39.337 Z3.044 A-16425.557 F2430.4
N8130 X39.336 Z3.195 A-16428.678 F3074.4
N8135 X39.335 Z3.363 A-16432.431 F2576.5
N8140 X39.334 Z3.505 A-16435.851 F2843.4
N8145 Z3.638 A-16439.345 F2821.5
N8150 X39.332 Z3.775 A-16443.369 F2490.
N8155 X39.331 Z3.879 A-16446.917 F2900.1
N8160 X39.33 Z3.967 A-16450.39 F3042.2
N8165 X39.329 Z4.041 A-16453.817 F3175.6
N8170 Z4.081 A-16456.124 F4882.6
N8175 X39.328 Z4.121 A-16458.631 F4538.4
N8180 X39.327 Z4.157 A-16461.896 F3661.
N8185 X39.326 Z4.18 A-16465.11 F3883.3
N8190 Z4.189 A-16467.799 F4866.
N8195 X39.324 Z4.187 A-16473.957 F2206.6
N8200 X39.323 Z4.169 A-16476.663 F4645.6
N8205 X39.322 Z4.144 A-16479.3 F4593.8
N8210 Z4.12 A-16481.423 F5643.2
N8215 X39.321 Z4.066 A-16484.906 F3282.7
N8220 X39.32 Z3.988 A-16488.77 F2838.9
N8225 X39.319 Z3.896 A-16492.469 F2863.2
N8230 X39.318 Z3.789 A-16496.128 F2812.9
N8235 X39.317 Z3.676 A-16499.519 F2967.2
N8240 X39.316 Z3.611 A-16501.308 F5549.2
N8245 X39.315 Z3.491 A-16504.498 F3113.8
N8250 X39.314 Z3.333 A-16508.262 F2584.
N8255 X39.313 Z3.161 A-16512.01 F2563.5
N8260 X39.312 Z3.011 A-16515.122 F3105.
N8265 Z2.847 A-16518.335 F3005.4
N8270 X39.311 Z2.643 A-16522.098 F2560.8
N8275 X39.31 Z2.436 A-16525.765 F2659.2
N8280 X39.309 Z2.223 A-16529.389 F2718.5
N8285 X39.307 Z1.969 A-16533.589 F2401.2
N8290 X39.306 Z1.727 A-16537.486 F2657.5
N8295 X39.305 Z1.462 A-16541.755 F2539.3
N8300 X39.304 Z1.232 A-16545.426 F3091.7
N8305 X39.303 Z1.038 A-16548.531 F3839.5
N8310 X39.302 Z0.897 A-16551.158 F5294.7
N8315 X39.301 Z0.668 A-16555.592 F3352.2
N8320 Z0.62 A-16556.449 F9999.
N8325 Z0.572 A-16557.449 F9999.
N8330 X39.3 Z0.476 A-16560.056 F8219.
N8335 A-16560.067 F9999.
N8340 X39.299 Z0.662 A-16564.287 F4259.2
N8345 X39.298 Z0.895 A-16568.809 F3295.3
N8350 X39.296 Z1.19 A-16573.82 F2503.9
N8355 X39.295 Z1.458 A-16578.179 F2639.8
N8360 X39.294 Z1.723 A-16582.428 F2546.6
N8365 X39.293 Z1.99 A-16586.777 F2394.
N8370 X39.291 Z2.244 A-16590.984 F2387.8
N8375 X39.29 Z2.463 A-16594.723 F2633.9
N8380 X39.289 Z2.672 A-16598.455 F2608.9
N8385 X39.288 Z2.857 A-16601.891 F2803.8
N8390 X39.287 Z3.041 A-16605.488 F2671.4
N8395 X39.286 Z3.207 A-16608.955 F2771.9
N8400 X39.285 Z3.361 A-16612.366 F2830.3
N8405 X39.284 Z3.515 A-16616.127 F2596.3
N8410 X39.283 Z3.659 A-16619.99 F2558.2
N8415 X39.282 Z3.783 A-16623.674 F2726.2
N8420 X39.281 Z3.898 A-16627.647 F2595.5
N8425 X39.28 Z3.988 A-16631.251 F2934.4
N8430 X39.279 Z4.069 A-16635.354 F2684.8
N8435 X39.278 Z4.121 A-16638.63 F3476.8
N8440 X39.277 Z4.165 A-16642.722 F2929.5
N8445 X39.276 Z4.187 A-16646.341 F3492.1
N8450 X39.275 Z4.194 A-16650.393 F3290.1
N8455 X39.274 Z4.183 A-16654.473 F3229.8
N8460 X39.273 Z4.16 A-16657.849 F3710.8
N8465 X39.272 Z4.123 A-16661.231 F3539.2
N8470 X39.271 Z4.055 A-16665.418 F2706.1
N8475 X39.27 Z3.975 A-16669.242 F2855.9
N8480 X39.269 Z3.877 A-16673.123 F2718.3
N8485 X39.268 Z3.764 A-16676.913 F2709.3
N8490 X39.266 Z3.631 A-16680.817 F2564.8
N8495 X39.265 Z3.483 A-16684.68 F2548.4
N8500 X39.264 Z3.325 A-16688.445 F2581.5
N8505 X39.263 Z3.169 A-16691.859 F2830.1
N8510 X39.262 Z3. A-16695.319 F2772.5
N8515 Z2.836 A-16698.535 F3005.2
N8520 X39.26 Z2.63 A-16702.315 F2549.5
N8525 X39.259 Z2.422 A-16706.004 F2645.7
N8530 X39.258 Z2.177 A-16710.139 F2380.6
N8535 X39.257 Z1.948 A-16713.916 F2685.8
N8540 X39.256 Z1.704 A-16717.869 F2645.5
N8545 X39.255 Z1.432 A-16722.229 F2489.9
N8550 X39.254 Z1.181 A-16726.317 F2830.4
N8555 X39.252 Z0.875 A-16731.536 F2417.8
N8560 X39.251 Z0.63 A-16736.447 F3125.8
N8565 X39.25 Z0.478 A-16739.945 F5254.5
N8570 Z0.479 A-16739.959 F9999.
N8575 X39.249 Z0.563 A-16742.267 F9325.4
N8580 Z0.648 A-16743.97 F9569.3
N8585 X39.248 Z0.865 A-16748.326 F3534.8
N8590 X39.247 Z0.95 A-16749.778 F9174.2
N8595 X39.246 Z1.158 A-16753.357 F3571.6
N8600 X39.245 Z1.368 A-16756.861 F3410.9
N8605 Z1.475 A-16758.474 F6702.9
N8610 X39.244 Z1.734 A-16762.616 F2603.2
N8615 X39.243 Z1.983 A-16766.658 F2571.8
N8620 X39.242 Z2.19 A-16770.059 F2965.4
N8625 X39.241 Z2.417 A-16773.915 F2567.
N8630 X39.24 Z2.633 A-16777.731 F2552.4
N8635 X39.238 Z2.843 A-16781.59 F2493.4
N8640 X39.237 Z3.044 A-16785.555 F2430.3
N8645 X39.236 Z3.21 A-16789.021 F2773.9
N8650 X39.235 Z3.363 A-16792.429 F2833.4
N8655 X39.234 Z3.505 A-16795.849 F2844.3
N8660 X39.233 Z3.65 A-16799.697 F2564.6
N8665 X39.232 Z3.774 A-16803.367 F2731.8
N8670 X39.231 Z3.879 A-16806.911 F2903.8
N8675 X39.23 Z3.967 A-16810.383 F3042.4
N8680 X39.229 Z4.04 A-16813.799 F3185.3
N8685 Z4.074 A-16815.754 F5775.2
N8690 X39.228 Z4.121 A-16818.598 F3988.9
N8695 X39.227 Z4.156 A-16821.78 F3754.9
N8700 X39.226 Z4.179 A-16824.916 F3973.4
N8705 Z4.188 A-16826.931 F6398.5
N8710 X39.225 Z4.194 A-16830.316 F3939.3
N8715 X39.224 Z4.184 A-16834.368 F3260.
N8720 X39.223 Z4.161 A-16837.747 F3714.
N8725 X39.222 Z4.121 A-16841.343 F3319.9
N8730 X39.221 Z4.065 A-16844.935 F3179.3
N8735 X39.22 Z3.987 A-16848.805 F2834.6
N8740 X39.219 Z3.895 A-16852.506 F2860.6
N8745 X39.218 Z3.788 A-16856.159 F2816.9
N8750 X39.217 Z3.675 A-16859.549 F2967.
N8755 X39.216 Z3.61 A-16861.34 F5533.8
N8760 X39.215 Z3.49 A-16864.529 F3115.6
N8765 X39.214 Z3.332 A-16868.295 F2583.
N8770 X39.213 Z3.178 A-16871.699 F2841.2
N8775 X39.212 Z3.009 A-16875.158 F2771.9
N8780 Z2.845 A-16878.372 F3006.5
N8785 X39.211 Z2.641 A-16882.138 F2557.6
N8790 X39.209 Z2.434 A-16885.808 F2657.5
N8795 X39.208 Z2.22 A-16889.437 F2717.6
N8800 X39.207 Z1.966 A-16893.647 F2397.2
N8805 X39.206 Z1.723 A-16897.559 F2649.8
N8810 X39.205 Z1.456 A-16901.86 F2524.6
N8815 X39.204 Z1.222 A-16905.608 F3038.9
N8820 X39.203 Z0.955 A-16910.154 F2745.4
N8825 X39.202 Z0.756 A-16913.624 F3897.6
N8830 X39.201 Z0.565 A-16917.932 F4028.7
N8835 X39.2 Z0.476 A-16920.045 F9073.5
N8840 A-16920.056 F9999.
N8845 X39.199 Z0.662 A-16924.287 F4247.9
N8850 X39.198 Z0.895 A-16928.809 F3295.3
N8855 X39.196 Z1.19 A-16933.82 F2503.9
N8860 X39.195 Z1.459 A-16938.192 F2632.1
N8865 X39.194 Z1.721 A-16942.398 F2572.5
N8870 X39.193 Z1.988 A-16946.754 F2390.1
N8875 X39.191 Z2.243 A-16950.967 F2382.2
N8880 X39.19 Z2.462 A-16954.711 F2632.3
N8885 X39.189 Z2.671 A-16958.444 F2609.4
N8890 X39.188 Z2.857 A-16961.88 F2803.8
N8895 X39.187 Z3.04 A-16965.478 F2671.4
N8900 X39.186 Z3.207 A-16968.945 F2770.2
N8905 X39.185 Z3.36 A-16972.357 F2829.8
N8910 X39.184 Z3.515 A-16976.117 F2597.6
N8915 X39.183 Z3.659 A-16979.979 F2558.3
N8920 X39.182 Z3.783 A-16983.665 F2725.1
N8925 X39.181 Z3.898 A-16987.637 F2596.3
N8930 X39.18 Z3.988 A-16991.238 F2935.3
N8935 X39.179 Z4.069 A-16995.341 F2684.9
N8940 X39.178 Z4.121 A-16998.612 F3483.5
N8945 X39.177 Z4.165 A-17002.694 F2934.4
N8950 X39.176 Z4.187 A-17006.298 F3504.
N8955 X39.175 Z4.194 A-17010.349 F3290.1
N8960 X39.174 Z4.183 A-17014.428 F3233.9
N8965 X39.173 Z4.161 A-17017.805 F3712.9
N8970 X39.172 Z4.124 A-17021.172 F3551.4
N8975 X39.171 Z4.057 A-17025.334 F2729.9
N8980 X39.17 Z3.977 A-17029.183 F2837.4
N8985 X39.169 Z3.877 A-17033.107 F2688.
N8990 X39.168 Z3.764 A-17036.91 F2700.
N8995 X39.166 Z3.63 A-17040.83 F2553.3
N9000 X39.165 Z3.482 A-17044.693 F2548.6
N9005 X39.164 Z3.324 A-17048.458 F2582.7
N9010 X39.163 Z3.169 A-17051.873 F2828.9
N9015 X39.162 Z2.999 A-17055.334 F2769.7
N9020 Z2.835 A-17058.552 F3004.
N9025 X39.16 Z2.629 A-17062.332 F2549.2
N9030 X39.159 Z2.421 A-17066.024 F2644.8
N9035 X39.158 Z2.175 A-17070.162 F2379.7
N9040 X39.157 Z1.946 A-17073.941 F2683.1
N9045 X39.156 Z1.702 A-17077.899 F2642.3
N9050 X39.155 Z1.43 A-17082.267 F2486.4
N9055 X39.154 Z1.178 A-17086.368 F2821.5
N9060 X39.152 Z0.87 A-17091.625 F2405.9
N9065 X39.151 Z0.619 A-17096.69 F3053.9
N9070 X39.15 Z0.478 A-17099.955 F5664.5
N9075 A-17099.963 F9999.
N9080 X39.149 Z0.57 A-17102.462 F8622.3
N9085 Z0.615 A-17103.433 F9999.
N9090 Z0.661 A-17104.269 F9999.
N9095 X39.148 Z0.892 A-17108.759 F3328.9
N9100 X39.146 Z1.187 A-17113.767 F2508.2
N9105 X39.145 Z1.464 A-17118.286 F2545.6
N9110 X39.144 Z1.714 A-17122.285 F2704.4
N9115 X39.143 Z1.967 A-17126.37 F2545.5
N9120 X39.142 Z2.207 A-17130.327 F2549.7
N9125 X39.141 Z2.431 A-17134.148 F2586.6
N9130 X39.139 Z2.646 A-17137.942 F2565.1
N9135 X39.138 Z2.852 A-17141.785 F2514.5
N9140 X39.137 Z3.036 A-17145.386 F2670.2
N9145 X39.136 Z3.203 A-17148.856 F2768.9
N9150 X39.135 Z3.357 A-17152.267 F2827.2
N9155 X39.134 Z3.512 A-17156.028 F2595.9
N9160 X39.133 Z3.645 A-17159.53 F2808.6
N9165 X39.132 Z3.769 A-17163.193 F2741.6
N9170 X39.131 Z3.885 A-17167.132 F2605.7
N9175 X39.13 Z3.973 A-17170.618 F3037.2
N9180 X39.129 Z4.046 A-17174.107 F3128.3
N9185 Z4.097 A-17177.056 F3823.
N9190 X39.128 Z4.132 A-17179.723 F4389.8
N9195 X39.127 Z4.163 A-17182.456 F4352.
N9200 X39.126 Z4.186 A-17186.01 F3538.2
N9205 X39.125 Z4.194 A-17189.925 F3398.4
N9210 X39.124 Z4.187 A-17194.003 F3268.7
N9215 X39.123 Z4.165 A-17197.385 F3720.8
N9220 X39.122 Z4.119 A-17201.452 F2930.
N9225 X39.121 Z4.063 A-17205.068 F3158.6
N9230 X39.12 Z3.986 A-17208.842 F2905.5
N9235 X39.119 Z3.89 A-17212.719 F2730.2
N9240 X39.118 Z3.776 A-17216.581 F2661.1
N9245 X39.117 Z3.645 A-17220.477 F2575.1
N9250 X39.115 Z3.497 A-17224.369 F2528.1
N9255 X39.114 Z3.339 A-17228.142 F2576.4
N9260 X39.113 Z3.168 A-17231.896 F2564.7
N9265 X39.112 Z2.998 A-17235.357 F2770.2
N9270 Z2.833 A-17238.578 F3000.
N9275 X39.111 Z2.651 A-17241.968 F2859.
N9280 X39.11 Z2.444 A-17245.624 F2660.1
N9285 X39.108 Z2.205 A-17249.709 F2415.9
N9290 X39.107 Z1.979 A-17253.407 F2722.3
N9295 X39.106 Z1.701 A-17257.918 F2301.3
N9300 X39.105 Z1.431 A-17262.256 F2507.
N9305 X39.104 Z1.186 A-17266.243 F2907.
N9310 X39.102 Z0.892 A-17271.243 F2514.4
N9315 X39.101 Z0.633 A-17276.379 F2950.1
N9320 X39.1 Z0.554 A-17277.946 F9999.
N9325 Z0.475 A-17280.034 F9999.
N9330 A-17280.045 F9999.
N9335 X39.099 Z0.576 A-17282.322 F8087.5
N9340 X39.098 Z0.728 A-17285.794 F5092.8
N9345 Z0.895 A-17288.809 F4674.3
N9350 X39.096 Z1.19 A-17293.82 F2503.9
N9355 X39.095 Z1.459 A-17298.195 F2630.4
N9360 X39.094 Z1.749 A-17302.895 F2305.6
N9365 X39.093 Z1.988 A-17306.741 F2688.9
N9370 X39.091 Z2.243 A-17310.957 F2381.
N9375 X39.09 Z2.462 A-17314.701 F2629.8
N9380 X39.089 Z2.671 A-17318.435 F2609.8
N9385 X39.088 Z2.856 A-17321.872 F2803.9
N9390 X39.087 Z3.04 A-17325.47 F2671.3
N9395 X39.086 Z3.207 A-17328.938 F2769.6
N9400 X39.085 Z3.36 A-17332.35 F2828.3
N9405 X39.084 Z3.514 A-17336.11 F2598.6
N9410 X39.083 Z3.659 A-17339.972 F2558.3
N9415 X39.082 Z3.782 A-17343.659 F2724.4
N9420 X39.081 Z3.897 A-17347.63 F2596.6
N9425 X39.08 Z3.987 A-17351.23 F2936.4
N9430 X39.079 Z4.069 A-17355.333 F2685.
N9435 X39.078 Z4.12 A-17358.599 F3488.
N9440 X39.077 Z4.164 A-17362.675 F2937.5
N9445 X39.076 Z4.187 A-17366.269 F3511.8
N9450 X39.075 Z4.194 A-17370.32 F3290.1
N9455 X39.074 Z4.184 A-17374.399 F3236.6
N9460 X39.073 Z4.161 A-17377.776 F3714.3
N9465 X39.072 Z4.115 A-17381.69 F3029.2
N9470 X39.071 Z4.058 A-17385.277 F3177.3
N9475 X39.07 Z3.979 A-17389.12 F2844.1
N9480 X39.069 Z3.879 A-17393.04 F2691.8
N9485 X39.068 Z3.767 A-17396.842 F2701.8
N9490 X39.066 Z3.633 A-17400.764 F2552.9
N9495 X39.065 Z3.485 A-17404.629 F2547.
N9500 X39.064 Z3.327 A-17408.394 F2583.8
N9505 X39.063 Z3.172 A-17411.805 F2834.2
N9510 X39.062 Z3.003 A-17415.267 F2767.3
N9515 X39.061 Z2.817 A-17418.849 F2680.4
N9520 X39.06 Z2.634 A-17422.257 F2847.4
N9525 X39.059 Z2.4 A-17426.37 F2364.1
N9530 X39.058 Z2.182 A-17430.068 F2683.7
N9535 X39.057 Z1.953 A-17433.834 F2686.8
N9540 X39.056 Z1.711 A-17437.77 F2653.8
N9545 X39.055 Z1.44 A-17442.114 F2496.5
N9550 X39.054 Z1.197 A-17446.034 F2930.7
N9555 X39.052 Z0.9 A-17451.108 F2479.9
N9560 X39.051 Z0.605 A-17457.008 F2581.8
N9565 X39.05 Z0.478 A-17459.963 F6306.9
N9570 A-17459.974 F9999.
N9575 Z0.529 A-17461.31 F9999.
N9580 X39.049 Z0.58 A-17462.412 F9999.
N9585 X39.048 Z0.789 A-17466.962 F3679.9
N9590 X39.047 Z0.947 A-17469.718 F4909.8
N9595 X39.046 Z1.171 A-17473.551 F3302.4
N9600 X39.045 Z1.424 A-17477.69 F2813.3
N9605 X39.044 Z1.556 A-17479.911 F5206.2
N9610 Z1.747 A-17482.86 F3551.2
N9615 X39.043 Z1.986 A-17486.72 F2682.5
N9620 X39.042 Z2.209 A-17490.359 F2758.3
N9625 X39.041 Z2.433 A-17494.178 F2587.3
N9630 X39.039 Z2.647 A-17497.969 F2566.9
N9635 X39.038 Z2.853 A-17501.809 F2517.2
N9640 X39.037 Z3.037 A-17505.409 F2670.9
N9645 X39.036 Z3.204 A-17508.879 F2768.9
N9650 X39.035 Z3.358 A-17512.29 F2827.6
N9655 X39.034 Z3.512 A-17516.051 F2596.6
N9660 X39.033 Z3.646 A-17519.554 F2806.9
N9665 X39.032 Z3.77 A-17523.22 F2740.1
N9670 X39.031 Z3.886 A-17527.158 F2606.8
N9675 X39.03 Z3.974 A-17530.664 F3019.9
N9680 X39.029 Z4.047 A-17534.163 F3120.5
N9685 Z4.098 A-17537.122 F3814.1
N9690 X39.028 Z4.125 A-17539.043 F6028.7
N9695 X39.027 Z4.164 A-17542.54 F3418.2
N9700 X39.026 Z4.186 A-17546.075 F3558.6
N9705 X39.025 Z4.194 A-17550.124 F3290.2
N9710 X39.024 Z4.185 A-17554.203 F3253.1
N9715 X39.023 Z4.163 A-17557.585 F3719.6
N9720 X39.022 Z4.125 A-17561.084 F3415.2
N9725 X39.021 Z4.065 A-17564.978 F2935.
N9730 X39.02 Z3.994 A-17568.478 F3133.6
N9735 X39.019 Z3.902 A-17572.237 F2824.1
N9740 X39.018 Z3.794 A-17575.953 F2775.
N9745 X39.017 Z3.683 A-17579.339 F2975.5
N9750 X39.016 Z3.616 A-17581.167 F5447.7
N9755 X39.015 Z3.49 A-17584.52 F2957.2
N9760 X39.014 Z3.324 A-17588.463 F2463.4
N9765 X39.013 Z3.169 A-17591.876 F2829.5
N9770 X39.012 Z2.999 A-17595.337 F2768.3
N9775 Z2.834 A-17598.558 F3001.1
N9780 X39.011 Z2.652 A-17601.946 F2858.6
N9785 X39.01 Z2.446 A-17605.6 F2661.8
N9790 X39.008 Z2.206 A-17609.682 F2417.9
N9795 X39.007 Z1.981 A-17613.376 F2723.4
N9800 X39.006 Z1.701 A-17617.916 F2286.7
N9805 X39.005 Z1.431 A-17622.253 F2509.3
N9810 X39.004 Z1.188 A-17626.215 F2924.1
N9815 X39.003 Z0.92 A-17630.785 F2753.8
N9820 X39.001 Z0.661 A-17635.742 F2956.
N9825 Z0.614 A-17636.571 F9999.
N9830 Z0.568 A-17637.537 F9999.
N9835 X39. Z0.475 A-17640.034 F8534.8
N9840 A-17640.045 F9999.
N9845 X38.999 Z0.576 A-17642.322 F8087.5
N9850 X38.998 Z0.729 A-17645.794 F5062.9
N9855 Z0.895 A-17648.809 F4698.3
N9860 X38.996 Z1.19 A-17653.82 F2503.9
N9865 X38.995 Z1.459 A-17658.198 F2628.7
N9870 X38.994 Z1.749 A-17662.876 F2314.
N9875 X38.993 Z1.987 A-17666.722 F2692.4
N9880 X38.991 Z2.242 A-17670.944 F2378.3
N9885 X38.99 Z2.462 A-17674.689 F2626.7
N9890 X38.989 Z2.671 A-17678.425 F2610.
N9895 X38.988 Z2.856 A-17681.863 F2803.9
N9900 X38.987 Z3.039 A-17685.461 F2671.2
N9905 X38.986 Z3.206 A-17688.929 F2769.7
N9910 X38.985 Z3.36 A-17692.342 F2826.6
N9915 X38.984 Z3.514 A-17696.101 F2599.7
N9920 X38.983 Z3.658 A-17699.963 F2558.3
N9925 X38.982 Z3.782 A-17703.65 F2723.4
N9930 X38.981 Z3.897 A-17707.621 F2597.
N9935 X38.98 Z3.987 A-17711.219 F2937.8
N9940 X38.979 Z4.068 A-17715.321 F2685.
N9945 X38.978 Z4.127 A-17719.166 F2983.8
N9950 X38.977 Z4.164 A-17722.65 F3435.7
N9955 X38.976 Z4.187 A-17726.232 F3521.1
N9960 X38.975 Z4.194 A-17730.283 F3290.1
N9965 X38.974 Z4.184 A-17734.361 F3240.
N9970 X38.973 Z4.161 A-17737.739 F3716.
N9975 X38.972 Z4.116 A-17741.637 F3043.6
N9980 X38.971 Z4.06 A-17745.205 F3197.4
N9985 X38.97 Z3.981 A-17749.03 F2861.3
N9990 X38.969 Z3.883 A-17752.93 F2707.9
N9995 X38.968 Z3.763 A-17756.951 F2546.6
N10000 X38.966 Z3.638 A-17760.645 F2719.7
N10005 X38.965 Z3.491 A-17764.501 F2553.5
N10010 X38.964 Z3.333 A-17768.266 F2583.5
N10015 X38.963 Z3.161 A-17772.016 F2565.4
N10020 X38.962 Z3.01 A-17775.128 F3099.3
N10025 X38.961 Z2.826 A-17778.707 F2682.
N10030 X38.96 Z2.62 A-17782.496 F2545.4
N10035 X38.959 Z2.41 A-17786.201 F2637.4
N10040 X38.958 Z2.194 A-17789.885 F2694.3
N10045 X38.957 Z1.967 A-17793.62 F2708.
N10050 X38.956 Z1.682 A-17798.194 F2262.
N10055 X38.955 Z1.461 A-17801.765 F3060.8
N10060 X38.954 Z1.226 A-17805.477 F3038.7
N10065 X38.953 Z1.09 A-17807.676 F5463.3
N10070 X38.952 Z0.873 A-17811.576 F3431.5
N10075 X38.951 Z0.591 A-17817.338 F2704.5
N10080 X38.95 Z0.478 A-17819.97 F7139.4
N10085 A-17819.981 F9999.
N10090 Z0.537 A-17821.543 F9999.
N10095 X38.949 Z0.597 A-17822.794 F9999.
N10100 X38.948 Z0.83 A-17827.731 F3279.6
N10105 X38.947 Z0.977 A-17830.306 F5248.6
N10110 X38.946 Z1.197 A-17833.938 F3373.9
N10115 X38.945 Z1.492 A-17838.756 F2379.3
N10120 X38.944 Z1.746 A-17842.834 F2640.6
N10125 X38.943 Z1.985 A-17846.698 F2683.5
N10130 X38.942 Z2.209 A-17850.371 F2733.5
N10135 X38.941 Z2.434 A-17854.188 F2588.3
N10140 X38.939 Z2.648 A-17857.978 F2567.4
N10145 X38.938 Z2.854 A-17861.818 F2518.2
N10150 X38.937 Z3.037 A-17865.417 F2670.7
N10155 X38.936 Z3.204 A-17868.886 F2769.2
N10160 X38.935 Z3.358 A-17872.297 F2827.8
N10165 X38.934 Z3.513 A-17876.059 F2596.8
N10170 X38.933 Z3.646 A-17879.562 F2806.7
N10175 X38.932 Z3.77 A-17883.228 F2739.7
N10180 X38.931 Z3.886 A-17887.17 F2603.7
N10185 X38.93 Z3.974 A-17890.679 F3018.1
N10190 X38.929 Z4.048 A-17894.175 F3123.8
N10195 Z4.098 A-17897.137 F3811.9
N10200 X38.928 Z4.125 A-17899.046 F6064.
N10205 X38.927 Z4.164 A-17902.544 F3417.2
N10210 X38.926 Z4.187 A-17906.145 F3498.8
N10215 X38.925 Z4.194 A-17910.194 F3290.4
N10220 X38.924 Z4.185 A-17914.274 F3246.4
N10225 X38.923 Z4.163 A-17917.655 F3718.4
N10230 X38.922 Z4.124 A-17921.162 F3407.4
N10235 X38.921 Z4.063 A-17925.074 F2916.4
N10240 X38.92 Z3.986 A-17928.83 F2919.4
N10245 X38.919 Z3.89 A-17932.713 F2726.2
N10250 X38.918 Z3.776 A-17936.59 F2650.9
N10255 X38.917 Z3.644 A-17940.479 F2579.7
N10260 X38.915 Z3.497 A-17944.364 F2533.
N10265 X38.914 Z3.323 A-17948.478 F2356.1
N10270 X38.913 Z3.168 A-17951.893 F2828.8
N10275 X38.912 Z2.998 A-17955.354 F2767.5
N10280 Z2.833 A-17958.576 F3000.
N10285 X38.911 Z2.651 A-17961.965 F2858.8
N10290 X38.91 Z2.444 A-17965.621 F2660.4
N10295 X38.908 Z2.205 A-17969.707 F2415.6
N10300 X38.907 Z1.98 A-17973.405 F2721.6
N10305 X38.906 Z1.699 A-17977.945 F2285.7
N10310 X38.905 Z1.426 A-17982.332 F2479.6
N10315 X38.904 Z1.182 A-17986.305 F2917.4
N10320 X38.903 Z0.912 A-17990.92 F2735.7
N10325 X38.901 Z0.645 A-17996.105 F2866.2
N10330 Z0.56 A-17997.776 F9612.5
N10335 X38.9 Z0.475 A-18000.045 F9369.
N10340 Z0.476 A-18000.056 F9999.
N10345 X38.899 Z0.662 A-18004.287 F4247.9
N10350 X38.898 Z0.895 A-18008.809 F3295.3
N10355 X38.896 Z1.19 A-18013.82 F2503.9
N10360 X38.895 Z1.459 A-18018.201 F2626.9
N10365 X38.894 Z1.748 A-18022.856 F2323.8
N10370 X38.893 Z1.986 A-18026.708 F2691.
N10375 X38.891 Z2.241 A-18030.935 F2375.5
N10380 X38.89 Z2.461 A-18034.681 F2624.6
N10385 X38.889 Z2.67 A-18038.418 F2610.3
N10390 X38.888 Z2.856 A-18041.856 F2804.1
N10395 X38.887 Z3.039 A-18045.455 F2671.2
N10400 X38.886 Z3.206 A-18048.922 F2769.9
N10405 X38.885 Z3.36 A-18052.335 F2826.
N10410 X38.884 Z3.514 A-18056.094 F2599.9
N10415 X38.883 Z3.658 A-18059.955 F2558.9
N10420 X38.882 Z3.782 A-18063.644 F2722.6
N10425 X38.881 Z3.897 A-18067.613 F2597.3
N10430 X38.88 Z3.987 A-18071.209 F2938.9
N10435 X38.879 Z4.068 A-18075.311 F2685.
N10440 X38.878 Z4.126 A-18079.153 F2985.6
N10445 X38.877 Z4.164 A-18082.631 F3441.
N10450 X38.876 Z4.187 A-18086.205 F3527.6
N10455 X38.875 Z4.194 A-18090.246 F3297.5
N10460 X38.874 Z4.184 A-18094.324 F3243.5
N10465 X38.873 Z4.162 A-18097.703 F3717.7
N10470 X38.872 Z4.117 A-18101.585 F3058.
N10475 X38.871 Z4.061 A-18105.135 F3217.5
N10480 X38.87 Z3.976 A-18109.233 F2657.9
N10485 X38.869 Z3.879 A-18113.053 F2764.6
N10490 X38.868 Z3.764 A-18116.913 F2658.6
N10495 X38.867 Z3.639 A-18120.602 F2724.5
N10500 X38.865 Z3.492 A-18124.462 F2550.
N10505 X38.864 Z3.335 A-18128.224 F2585.8
N10510 X38.863 Z3.164 A-18131.973 F2567.9
N10515 X38.862 Z2.994 A-18135.435 F2767.3
N10520 X38.861 Z2.828 A-18138.66 F2996.2
N10525 X38.86 Z2.623 A-18142.446 F2546.7
N10530 X38.859 Z2.413 A-18146.147 F2639.9
N10535 X38.858 Z2.197 A-18149.824 F2698.1
N10540 X38.857 Z1.935 A-18154.099 F2347.1
N10545 X38.856 Z1.688 A-18158.104 F2616.1
N10550 X38.855 Z1.467 A-18161.647 F3067.5
N10555 X38.854 Z1.234 A-18165.327 F3059.3
N10560 Z1.156 A-18166.679 F9363.9
N10565 X38.853 Z0.949 A-18170.18 F3590.4
N10570 X38.852 Z0.778 A-18173.225 F4524.7
N10575 X38.851 Z0.623 A-18176.602 F4984.2
N10580 X38.85 Z0.478 A-18179.978 F5496.9
N10585 A-18179.991 F9999.
N10590 X38.849 Z0.57 A-18182.488 F8587.5
N10595 Z0.616 A-18183.457 F9999.
N10600 Z0.662 A-18184.291 F9999.
N10605 X38.847 Z0.932 A-18189.433 F2833.3
N10610 X38.846 Z1.222 A-18194.399 F2525.5
N10615 X38.845 Z1.456 A-18198.145 F3033.3
N10620 X38.844 Z1.721 A-18202.392 F2549.8
N10625 X38.843 Z1.972 A-18206.46 F2556.6
N10630 X38.842 Z2.212 A-18210.421 F2543.6
N10635 X38.84 Z2.436 A-18214.229 F2591.8
N10640 X38.839 Z2.65 A-18218.015 F2570.4
N10645 X38.838 Z2.855 A-18221.852 F2521.2
N10650 X38.837 Z3.039 A-18225.451 F2670.8
N10655 X38.836 Z3.206 A-18228.919 F2769.7
N10660 X38.835 Z3.36 A-18232.329 F2828.4
N10665 Z3.502 A-18235.748 F2847.1
N10670 X38.833 Z3.647 A-18239.595 F2562.8
N10675 X38.832 Z3.771 A-18243.263 F2737.5
N10680 X38.831 Z3.888 A-18247.209 F2602.1
N10685 X38.83 Z3.976 A-18250.725 F3012.9
N10690 X38.829 Z4.059 A-18254.763 F2703.
N10695 X38.828 Z4.118 A-18258.455 F3084.9
N10700 X38.827 Z4.155 A-18261.731 F3638.
N10705 Z4.175 A-18264.242 F4943.6
N10710 X38.826 Z4.187 A-18266.259 F6278.3
N10715 X38.825 Z4.194 A-18270.309 F3290.7
N10720 X38.824 Z4.184 A-18274.368 F3254.7
N10725 X38.823 Z4.161 A-18277.747 F3714.3
N10730 X38.822 Z4.122 A-18281.292 F3371.4
N10735 X38.821 Z4.065 A-18284.924 F3142.9
N10740 X38.82 Z3.987 A-18288.788 F2839.1
N10745 X38.819 Z3.89 A-18292.717 F2694.8
N10750 X38.818 Z3.777 A-18296.532 F2693.9
N10755 X38.817 Z3.645 A-18300.456 F2559.1
N10760 X38.815 Z3.491 A-18304.503 F2425.6
N10765 X38.814 Z3.333 A-18308.269 F2582.5
N10770 X38.813 Z3.161 A-18312.02 F2566.4
N10775 X38.812 Z3.01 A-18315.132 F3097.2
N10780 X38.811 Z2.825 A-18318.711 F2681.6
N10785 Z2.643 A-18322.11 F2854.1
N10790 X38.81 Z2.436 A-18325.779 F2658.2
N10795 X38.808 Z2.194 A-18329.884 F2401.4
N10800 X38.807 Z1.968 A-18333.611 F2714.4
N10805 X38.806 Z1.724 A-18337.531 F2643.6
N10810 X38.805 Z1.462 A-18341.751 F2566.7
N10815 X38.804 Z1.228 A-18345.48 F3041.1
N10820 X38.803 Z1.092 A-18347.678 F5456.8
N10825 Z0.928 A-18350.633 F4544.5
N10830 X38.801 Z0.693 A-18355.064 F3252.2
N10835 Z0.586 A-18357.445 F7406.
N10840 X38.8 Z0.531 A-18358.609 F9999.
N10845 Z0.476 A-18360.045 F9999.
N10850 A-18360.056 F9999.
N10855 X38.799 Z0.662 A-18364.287 F4247.9
N10860 X38.798 Z0.895 A-18368.809 F3295.3
N10865 X38.796 Z1.108 A-18372.652 F3481.1
N10870 Z1.19 A-18373.82 F9381.3
N10875 X38.795 Z1.46 A-18378.204 F2625.
N10880 X38.794 Z1.747 A-18382.832 F2335.
N10885 X38.793 Z1.985 A-18386.69 F2690.
N10890 X38.791 Z2.24 A-18390.912 F2379.4
N10895 X38.79 Z2.46 A-18394.659 F2623.4
N10900 X38.789 Z2.669 A-18398.398 F2608.4
N10905 X38.788 Z2.855 A-18401.837 F2803.7
N10910 X38.787 Z3.038 A-18405.437 F2670.9
N10915 X38.786 Z3.205 A-18408.905 F2769.3
N10920 X38.785 Z3.372 A-18412.657 F2579.8
N10925 X38.784 Z3.513 A-18416.078 F2849.1
N10930 X38.783 Z3.658 A-18419.936 F2561.
N10935 X38.782 Z3.782 A-18423.626 F2720.5
N10940 X38.781 Z3.897 A-18427.594 F2598.
N10945 X38.78 Z3.987 A-18431.186 F2941.6
N10950 X38.779 Z4.068 A-18435.287 F2684.9
N10955 X38.778 Z4.126 A-18439.123 F2989.8
N10960 X38.777 Z4.164 A-18442.586 F3453.
N10965 X38.776 Z4.187 A-18446.145 F3538.7
N10970 X38.775 Z4.194 A-18450.13 F3342.6
N10975 X38.774 Z4.185 A-18454.206 F3254.6
N10980 X38.773 Z4.163 A-18457.586 F3719.9
N10985 X38.772 Z4.119 A-18461.447 F3082.7
N10990 X38.771 Z4.057 A-18465.319 F2933.9
N10995 X38.77 Z3.981 A-18469.046 F2938.8
N11000 X38.769 Z3.884 A-18472.903 F2740.9
N11005 X38.768 Z3.77 A-18476.755 F2666.2
N11010 X38.766 Z3.63 A-18480.838 F2446.3
N11015 X38.765 Z3.482 A-18484.701 F2548.8
N11020 X38.764 Z3.324 A-18488.467 F2584.1
N11025 X38.763 Z3.169 A-18491.881 F2831.6
N11030 X38.762 Z2.999 A-18495.343 F2765.
N11035 Z2.834 A-18498.561 F3003.3
N11040 X38.76 Z2.629 A-18502.341 F2549.1
N11045 X38.759 Z2.42 A-18506.034 F2644.3
N11050 X38.758 Z2.176 A-18510.173 F2385.9
N11055 X38.757 Z1.945 A-18513.952 F2674.2
N11060 X38.756 Z1.701 A-18517.91 F2642.5
N11065 X38.755 Z1.43 A-18522.274 F2493.6
N11070 X38.754 Z1.186 A-18526.242 F2919.1
N11075 X38.752 Z0.878 A-18531.492 F2396.5
N11080 X38.751 Z0.589 A-18537.391 F2635.8
N11085 X38.75 Z0.478 A-18539.986 F7282.9
N11090 A-18539.996 F9999.
N11095 X38.749 Z0.566 A-18542.375 F8979.
N11100 Z0.655 A-18544.111 F9222.3
N11105 X38.747 Z0.916 A-18549.152 F2924.7
N11110 X38.746 Z1.203 A-18554.051 F2562.1
N11115 X38.745 Z1.455 A-18558.128 F2813.7
N11120 X38.744 Z1.728 A-18562.515 F2466.5
N11125 X38.743 Z1.978 A-18566.578 F2561.
N11130 X38.742 Z2.216 A-18570.493 F2569.6
N11135 X38.74 Z2.44 A-18574.297 F2592.9
N11140 X38.739 Z2.653 A-18578.076 F2574.1
N11145 X38.738 Z2.858 A-18581.908 F2525.9
N11150 X38.737 Z3.042 A-18585.505 F2671.
N11155 X38.736 Z3.208 A-18588.972 F2770.3
N11160 X38.735 Z3.362 A-18592.381 F2829.4
N11165 Z3.504 A-18595.801 F2847.7
N11170 X38.733 Z3.649 A-18599.65 F2563.6
N11175 X38.732 Z3.773 A-18603.32 F2733.8
N11180 X38.731 Z3.889 A-18607.271 F2599.
N11185 X38.73 Z3.977 A-18610.799 F3004.1
N11190 X38.729 Z4.061 A-18614.844 F2700.1
N11195 X38.728 Z4.12 A-18618.563 F3064.3
N11200 X38.727 Z4.158 A-18621.918 F3557.7
N11205 X38.726 Z4.181 A-18625.215 F3787.1
N11210 Z4.189 A-18627.885 F4910.3
N11215 X38.724 Z4.186 A-18634.068 F2195.3
N11220 X38.723 Z4.165 A-18637.447 F3720.5
N11225 X38.722 Z4.119 A-18641.476 F2954.5
N11230 X38.721 Z4.062 A-18645.088 F3161.8
N11235 X38.72 Z3.986 A-18648.831 F2930.2
N11240 X38.719 Z3.89 A-18652.695 F2739.3
N11245 X38.718 Z3.776 A-18656.573 F2651.3
N11250 X38.717 Z3.645 A-18660.469 F2575.6
N11255 X38.715 Z3.497 A-18664.361 F2527.9
N11260 X38.714 Z3.323 A-18668.477 F2355.3
N11265 X38.713 Z3.168 A-18671.89 F2832.7
N11270 X38.712 Z2.998 A-18675.351 F2764.9
N11275 Z2.833 A-18678.573 F2999.9
N11280 X38.71 Z2.628 A-18682.352 F2549.9
N11285 X38.709 Z2.419 A-18686.044 F2644.5
N11290 X38.708 Z2.205 A-18689.704 F2709.7
N11295 X38.707 Z1.98 A-18693.401 F2722.
N11300 X38.706 Z1.701 A-18697.908 F2303.4
N11305 X38.705 Z1.429 A-18702.295 F2480.4
N11310 X38.704 Z1.188 A-18706.219 F2954.2
N11315 X38.703 Z0.946 A-18710.306 F3065.1
N11320 X38.701 Z0.704 A-18714.79 F3159.6
N11325 X38.7 Z0.537 A-18718.572 F4690.2
N11330 Z0.476 A-18720.045 F9999.
N11335 A-18720.056 F9999.
N11340 X38.699 Z0.662 A-18724.287 F4247.9
N11345 X38.698 Z0.895 A-18728.809 F3295.3
N11350 X38.696 Z1.108 A-18732.652 F3481.1
N11355 Z1.19 A-18733.82 F9381.3
N11360 X38.695 Z1.46 A-18738.207 F2623.2
N11365 X38.694 Z1.728 A-18742.515 F2508.8
N11370 X38.693 Z1.994 A-18746.85 F2401.8
N11375 X38.691 Z2.247 A-18751.032 F2397.
N11380 X38.69 Z2.466 A-18754.766 F2632.4
N11385 X38.689 Z2.674 A-18758.497 F2615.1
N11390 X38.688 Z2.859 A-18761.93 F2808.4
N11395 X38.687 Z3.042 A-18765.527 F2671.4
N11400 X38.686 Z3.209 A-18768.992 F2771.
N11405 X38.685 Z3.363 A-18772.401 F2829.6
N11410 X38.684 Z3.516 A-18776.166 F2597.7
N11415 X38.683 Z3.65 A-18779.68 F2800.4
N11420 X38.682 Z3.784 A-18783.71 F2498.8
N11425 X38.681 Z3.899 A-18787.697 F2587.6
N11430 X38.68 Z3.989 A-18791.292 F2942.1
N11435 X38.679 Z4.063 A-18794.922 F3017.3
N11440 X38.678 Z4.122 A-18798.695 F3021.8
N11445 X38.677 Z4.165 A-18802.833 F2906.6
N11450 X38.676 Z4.181 A-18805.306 F5091.3
N11455 Z4.189 A-18807.88 F5106.1
N11460 X38.674 Z4.187 A-18813.306 F2505.
N11465 X38.673 Z4.172 A-18816.026 F4675.
N11470 Z4.157 A-18818.045 F6205.9
N11475 X38.672 Z4.119 A-18821.494 F3458.1
N11480 X38.671 Z4.057 A-18825.341 F2953.
N11485 X38.67 Z3.977 A-18829.191 F2837.4
N11490 X38.669 Z3.877 A-18833.114 F2688.7
N11495 X38.668 Z3.764 A-18836.904 F2709.1
N11500 X38.666 Z3.631 A-18840.809 F2564.2
N11505 X38.665 Z3.483 A-18844.672 F2548.2
N11510 X38.664 Z3.325 A-18848.439 F2583.3
N11515 X38.663 Z3.17 A-18851.853 F2833.1
N11520 X38.662 Z3. A-18855.315 F2764.
N11525 Z2.836 A-18858.531 F3005.5
N11530 X38.66 Z2.631 A-18862.31 F2549.7
N11535 X38.659 Z2.422 A-18865.998 F2646.7
N11540 X38.658 Z2.179 A-18870.131 F2392.
N11545 X38.657 Z1.949 A-18873.906 F2674.7
N11550 X38.656 Z1.704 A-18877.866 F2638.8
N11555 X38.655 Z1.436 A-18882.184 F2518.
N11560 X38.654 Z1.192 A-18886.128 F2924.9
N11565 X38.652 Z0.892 A-18891.244 F2457.3
N11570 X38.651 Z0.6 A-18897.141 F2602.4
N11575 X38.65 Z0.478 A-18899.992 F6609.7
N11580 A-18900.003 F9999.
N11585 X38.649 Z0.587 A-18902.568 F7410.3
N11590 X38.648 Z0.804 A-18907.263 F3530.4
N11595 X38.647 Z0.956 A-18909.876 F5119.4
N11600 X38.646 Z1.172 A-18913.56 F3428.4
N11605 X38.645 Z1.466 A-18918.321 F2404.
N11610 X38.644 Z1.722 A-18922.407 F2644.
N11615 X38.643 Z1.972 A-18926.466 F2561.9
N11620 X38.642 Z2.212 A-18930.425 F2544.6
N11625 X38.64 Z2.436 A-18934.23 F2593.7
N11630 X38.639 Z2.65 A-18938.016 F2570.2
N11635 X38.638 Z2.856 A-18941.853 F2521.3
N11640 X38.637 Z3.039 A-18945.452 F2671.2
N11645 X38.636 Z3.206 A-18948.921 F2768.9
N11650 X38.635 Z3.36 A-18952.331 F2827.9
N11655 Z3.502 A-18955.751 F2847.2
N11660 X38.633 Z3.647 A-18959.598 F2563.1
N11665 X38.632 Z3.771 A-18963.265 F2737.8
N11670 X38.631 Z3.888 A-18967.211 F2602.
N11675 X38.63 Z3.986 A-18971.17 F2672.5
N11680 X38.629 Z4.059 A-18974.741 F3071.6
N11685 X38.628 Z4.118 A-18978.424 F3091.5
N11690 X38.627 Z4.154 A-18981.62 F3728.7
N11695 Z4.174 A-18984.081 F5027.5
N11700 X38.626 Z4.187 A-18986.101 F6238.
N11705 X38.625 Z4.194 A-18990.149 F3290.3
N11710 X38.624 Z4.185 A-18994.229 F3251.
N11715 X38.623 Z4.163 A-18997.609 F3720.7
N11720 X38.622 Z4.117 A-19001.581 F2986.8
N11725 X38.621 Z4.066 A-19004.893 F3459.2
N11730 X38.62 Z3.989 A-19008.725 F2863.1
N11735 X38.619 Z3.891 A-19012.651 F2698.3
N11740 X38.618 Z3.772 A-19016.704 F2532.7
N11745 X38.617 Z3.64 A-19020.592 F2577.5
N11750 X38.615 Z3.493 A-19024.456 F2548.
N11755 X38.614 Z3.335 A-19028.218 F2585.
N11760 X38.613 Z3.165 A-19031.966 F2571.7
N11765 X38.612 Z2.994 A-19035.427 F2764.5
N11770 X38.611 Z2.829 A-19038.653 F2995.3
N11775 Z2.646 A-19042.048 F2857.4
N11780 X38.61 Z2.439 A-19045.713 F2657.
N11785 X38.608 Z2.198 A-19049.811 F2406.9
N11790 X38.607 Z1.973 A-19053.525 F2718.1
N11795 X38.606 Z1.691 A-19058.062 F2283.4
N11800 X38.605 Z1.414 A-19062.505 F2449.
N11805 X38.604 Z1.168 A-19066.502 F2905.
N11810 X38.602 Z0.905 A-19071.02 F2816.3
N11815 X38.601 Z0.631 A-19076.419 F2781.8
N11820 X38.6 Z0.554 A-19077.978 F9999.
N11825 Z0.476 A-19080.045 F9999.
N11830 A-19080.056 F9999.
N11835 X38.599 Z0.662 A-19084.287 F4254.2
N11840 X38.598 Z0.895 A-19088.809 F3295.3
N11845 X38.597 Z1.038 A-19091.484 F5216.6
N11850 X38.596 Z1.19 A-19093.82 F4985.4
N11855 X38.595 Z1.46 A-19098.21 F2621.1
N11860 X38.594 Z1.727 A-19102.496 F2522.5
N11865 X38.593 Z1.993 A-19106.828 F2403.4
N11870 X38.591 Z2.246 A-19111.008 F2398.9
N11875 X38.59 Z2.465 A-19114.744 F2629.
N11880 X38.589 Z2.673 A-19118.478 F2614.3
N11885 X38.588 Z2.858 A-19121.912 F2808.1
N11890 X38.587 Z3.042 A-19125.509 F2671.4
N11895 X38.586 Z3.209 A-19128.976 F2770.1
N11900 X38.585 Z3.362 A-19132.386 F2828.3
N11905 X38.584 Z3.516 A-19136.149 F2598.7
N11910 X38.583 Z3.649 A-19139.665 F2798.7
N11915 X38.582 Z3.783 A-19143.694 F2498.8
N11920 X38.581 Z3.898 A-19147.675 F2591.2
N11925 X38.58 Z3.988 A-19151.274 F2938.7
N11930 X38.579 Z4.069 A-19155.379 F2684.4
N11935 X38.578 Z4.121 A-19158.666 F3463.
N11940 X38.577 Z4.165 A-19162.782 F2917.8
N11945 X38.576 Z4.187 A-19166.44 F3460.5
N11950 X38.575 Z4.193 A-19169.143 F4898.1
N11955 Z4.194 A-19170.493 F9999.
N11960 X38.574 Z4.182 A-19174.574 F3220.7
N11965 X38.573 Z4.159 A-19177.949 F3706.2
N11970 X38.572 Z4.121 A-19181.365 F3499.9
N11975 X38.571 Z4.054 A-19185.463 F2763.1
N11980 X38.57 Z3.975 A-19189.264 F2873.4
N11985 X38.569 Z3.884 A-19192.893 F2921.
N11990 X38.568 Z3.763 A-19196.928 F2537.
N11995 X38.566 Z3.63 A-19200.83 F2565.8
N12000 X38.565 Z3.482 A-19204.693 F2548.6
N12005 X38.564 Z3.324 A-19208.459 F2583.8
N12010 X38.563 Z3.169 A-19211.874 F2832.8
N12015 X38.562 Z2.999 A-19215.335 F2763.6
N12020 Z2.835 A-19218.553 F3003.9
N12025 X38.56 Z2.629 A-19222.333 F2549.4
N12030 X38.559 Z2.421 A-19226.023 F2645.7
N12035 X38.558 Z2.177 A-19230.159 F2390.4
N12040 X38.557 Z1.946 A-19233.937 F2672.2
N12045 X38.556 Z1.702 A-19237.904 F2635.1
N12050 X38.555 Z1.431 A-19242.262 F2496.7
N12055 X38.554 Z1.184 A-19246.269 F2888.2
N12060 X38.552 Z0.877 A-19251.509 F2403.9
N12065 X38.551 Z0.588 A-19257.41 F2637.4
N12070 X38.55 Z0.533 A-19258.574 F9999.
N12075 Z0.478 A-19260.006 F9999.
N12080 A-19260.017 F9999.
N12085 X38.549 Z0.656 A-19264.141 F4447.2
N12090 X38.547 Z0.952 A-19269.807 F2562.4
N12095 X38.546 Z1.163 A-19273.424 F3519.6
N12100 X38.545 Z1.396 A-19277.29 F3051.1
N12105 Z1.512 A-19279.089 F6110.2
N12110 X38.544 Z1.729 A-19282.52 F3128.
N12115 X38.543 Z1.978 A-19286.565 F2571.5
N12120 X38.542 Z2.217 A-19290.506 F2553.9
N12125 X38.54 Z2.44 A-19294.298 F2600.6
N12130 X38.539 Z2.653 A-19298.077 F2574.
N12135 X38.538 Z2.858 A-19301.909 F2526.
N12140 X38.537 Z3.042 A-19305.506 F2671.5
N12145 X38.536 Z3.208 A-19308.973 F2769.8
N12150 X38.535 Z3.362 A-19312.382 F2829.
N12155 Z3.504 A-19315.802 F2848.
N12160 X38.533 Z3.649 A-19319.651 F2563.5
N12165 X38.532 Z3.773 A-19323.321 F2733.8
N12170 X38.531 Z3.889 A-19327.272 F2599.2
N12175 X38.53 Z3.988 A-19331.242 F2670.5
N12180 X38.529 Z4.061 A-19334.82 F3062.1
N12185 X38.528 Z4.119 A-19338.515 F3084.2
N12190 X38.527 Z4.156 A-19341.78 F3654.2
N12195 X38.526 Z4.179 A-19344.994 F3877.3
N12200 Z4.187 A-19347.007 F6458.2
N12205 X38.525 Z4.194 A-19350.386 F3934.2
N12210 X38.524 Z4.187 A-19353.521 F4237.7
N12215 X38.523 Z4.163 A-19357.583 F3116.2
N12220 X38.522 Z4.12 A-19361.402 F3118.4
N12225 X38.521 Z4.064 A-19365.002 F3174.6
N12230 X38.52 Z3.987 A-19368.802 F2884.4
N12235 X38.519 Z3.891 A-19372.653 F2749.
N12240 X38.518 Z3.771 A-19376.71 F2529.9
N12245 X38.516 Z3.638 A-19380.63 F2555.3
N12250 X38.515 Z3.491 A-19384.506 F2539.8
N12255 X38.514 Z3.325 A-19388.447 F2464.2
N12260 X38.513 Z3.17 A-19391.861 F2832.6
N12265 X38.512 Z3. A-19395.323 F2764.4
N12270 Z2.835 A-19398.543 F3001.3
N12275 X38.51 Z2.63 A-19402.321 F2550.7
N12280 X38.509 Z2.422 A-19406.009 F2646.9
N12285 X38.508 Z2.207 A-19409.664 F2712.4
N12290 X38.507 Z1.948 A-19413.916 F2362.6
N12295 X38.506 Z1.701 A-19417.907 F2616.9
N12300 X38.505 Z1.432 A-19422.244 F2509.
N12305 X38.504 Z1.187 A-19426.238 F2899.3
N12310 X38.503 Z0.944 A-19430.344 F3054.5
N12315 X38.501 Z0.702 A-19434.802 F3170.3
N12320 X38.5 Z0.537 A-19438.579 F4725.7
N12325 Z0.477 A-19440.045 F9999.
N12330 A-19440.056 F9999.
N12335 X38.499 Z0.662 A-19444.287 F4265.2
N12340 X38.498 Z0.895 A-19448.809 F3295.3
N12345 X38.497 Z1.039 A-19451.484 F5198.6
N12350 X38.496 Z1.19 A-19453.82 F5001.2
N12355 X38.495 Z1.444 A-19457.969 F2791.5
N12360 X38.494 Z1.712 A-19462.257 F2520.5
N12365 X38.493 Z1.982 A-19466.644 F2372.6
N12370 X38.491 Z2.238 A-19470.876 F2374.5
N12375 X38.49 Z2.458 A-19474.626 F2622.4
N12380 X38.489 Z2.668 A-19478.367 F2605.1
N12385 X38.488 Z2.853 A-19481.808 F2803.7
N12390 X38.487 Z3.037 A-19485.409 F2670.4
N12395 X38.486 Z3.22 A-19489.226 F2516.6
N12400 X38.485 Z3.372 A-19492.63 F2841.
N12405 X38.484 Z3.512 A-19496.052 F2851.
N12410 X38.483 Z3.657 A-19499.905 F2564.1
N12415 X38.482 Z3.781 A-19503.599 F2717.2
N12420 X38.481 Z3.896 A-19507.565 F2598.9
N12425 X38.48 Z3.986 A-19511.151 F2945.2
N12430 X38.479 Z4.067 A-19515.252 F2684.4
N12435 X38.478 Z4.126 A-19519.078 F2995.1
N12440 X38.477 Z4.164 A-19522.523 F3467.3
N12445 X38.476 Z4.186 A-19526.05 F3566.3
N12450 X38.475 Z4.194 A-19530.079 F3305.7
N12455 X38.474 Z4.186 A-19534.155 F3259.5
N12460 X38.473 Z4.167 A-19536.861 F4617.2
N12465 X38.472 Z4.14 A-19539.502 F4570.6
N12470 Z4.111 A-19541.925 F4899.6
N12475 X38.471 Z4.054 A-19545.474 F3203.8
N12480 X38.47 Z3.975 A-19549.27 F2877.1
N12485 X38.469 Z3.884 A-19552.897 F2922.
N12490 X38.468 Z3.77 A-19556.748 F2667.
N12495 X38.466 Z3.63 A-19560.833 F2445.3
N12500 X38.465 Z3.482 A-19564.696 F2548.7
N12505 X38.464 Z3.324 A-19568.462 F2584.2
N12510 X38.463 Z3.169 A-19571.876 F2832.7
N12515 X38.462 Z2.999 A-19575.338 F2763.6
N12520 Z2.834 A-19578.556 F3003.7
N12525 X38.46 Z2.629 A-19582.336 F2549.3
N12530 X38.459 Z2.42 A-19586.026 F2645.4
N12535 X38.458 Z2.177 A-19590.163 F2390.1
N12540 X38.457 Z1.946 A-19593.941 F2672.4
N12545 X38.456 Z1.701 A-19597.909 F2634.4
N12550 X38.455 Z1.43 A-19602.266 F2497.7
N12555 X38.454 Z1.181 A-19606.315 F2854.6
N12560 X38.453 Z0.939 A-19610.377 F3070.7
N12565 X38.452 Z0.742 A-19613.893 F3929.9
N12570 X38.451 Z0.586 A-19617.447 F4945.3
N12575 X38.45 Z0.532 A-19618.6 F9999.
N12580 Z0.478 A-19620.015 F9999.
N12585 A-19620.025 F9999.
N12590 X38.449 Z0.658 A-19624.197 F4383.5
N12595 X38.447 Z0.907 A-19629.002 F3082.
N12600 X38.446 Z1.179 A-19633.657 F2717.5
N12605 X38.445 Z1.453 A-19638.087 F2589.6
N12610 X38.444 Z1.748 A-19642.845 F2269.4
N12615 X38.443 Z1.985 A-19646.695 F2701.5
N12620 X38.442 Z2.209 A-19650.368 F2734.
N12625 X38.44 Z2.459 A-19654.632 F2311.9
N12630 X38.439 Z2.668 A-19658.375 F2603.7
N12635 X38.438 Z2.854 A-19661.816 F2803.9
N12640 X38.437 Z3.037 A-19665.417 F2670.2
N12645 X38.436 Z3.204 A-19668.886 F2769.1
N12650 X38.435 Z3.372 A-19672.639 F2575.7
N12655 X38.434 Z3.513 A-19676.059 F2852.7
N12660 X38.433 Z3.646 A-19679.562 F2807.1
N12665 X38.432 Z3.77 A-19683.227 F2740.5
N12670 X38.431 Z3.886 A-19687.171 F2602.5
N12675 X38.43 Z3.986 A-19691.133 F2668.1
N12680 X38.429 Z4.059 A-19694.73 F3050.4
N12685 X38.428 Z4.118 A-19698.433 F3074.7
N12690 X38.427 Z4.164 A-19702.478 F2943.5
N12695 X38.426 Z4.186 A-19706.033 F3537.4
N12700 X38.425 Z4.194 A-19709.946 F3401.2
N12705 X38.424 Z4.187 A-19714.023 F3268.3
N12710 X38.423 Z4.168 A-19716.728 F4635.9
N12715 X38.422 Z4.142 A-19719.369 F4571.4
N12720 Z4.119 A-19721.445 F5795.
N12725 X38.421 Z4.064 A-19724.988 F3227.4
N12730 X38.42 Z3.986 A-19728.839 F2847.
N12735 X38.419 Z3.888 A-19732.777 F2684.8
N12740 X38.418 Z3.775 A-19736.614 F2680.2
N12745 X38.417 Z3.643 A-19740.526 F2561.9
N12750 X38.415 Z3.487 A-19744.583 F2420.3
N12755 X38.414 Z3.329 A-19748.35 F2581.7
N12760 X38.413 Z3.158 A-19752.101 F2567.6
N12765 X38.412 Z3.006 A-19755.218 F3086.9
N12770 Z2.842 A-19758.433 F3007.
N12775 X38.41 Z2.637 A-19762.205 F2553.
N12780 X38.409 Z2.429 A-19765.883 F2652.3
N12785 X38.408 Z2.187 A-19770.003 F2396.2
N12790 X38.407 Z1.96 A-19773.747 F2703.3
N12795 X38.406 Z1.718 A-19777.652 F2664.1
N12800 X38.405 Z1.449 A-19781.972 F2511.1
N12805 X38.404 Z1.213 A-19785.754 F3017.5
N12810 X38.403 Z1.001 A-19789.157 F3521.6
N12815 X38.402 Z0.834 A-19792.281 F4504.7
N12820 X38.401 Z0.66 A-19795.763 F4453.4
N12825 Z0.614 A-19796.593 F9999.
N12830 Z0.568 A-19797.559 F9999.
N12835 X38.4 Z0.477 A-19800.045 F8631.2
N12840 A-19800.056 F9999.
N12845 X38.399 Z0.662 A-19804.287 F4276.3
